;FLAVOR:UltiGCode
;TIME:2308
;MATERIAL:3564
;MATERIAL2:0
;NOZZLE_DIAMETER:0.4
;MINX:84.942
;MINY:91.543
;MINZ:0.27
;MAXX:138.872
;MAXY:135.553
;MAXZ:9.87
;Generated with Cura_SteamEngine 4.8.0
M82 ;absolute extrusion mode
G0 F3000 Y50 ;avoid prime blob
G92 E0
G92 E0
G10
;LAYER_COUNT:65
;LAYER:0
M107
G0 F4500 X87.905 Y100.131 Z0.27
;TYPE:SKIRT
G11
G1 F1800 X88.545 Y99.661 E0.07504
G1 X89.228 Y99.257 E0.15003
G1 X89.87 Y98.957 E0.21699
G1 X106.298 Y92.154 E1.89729
G1 X107.045 Y91.888 E1.97222
G1 X107.942 Y91.675 E2.05934
G1 X108.01 Y91.663 E2.06587
G1 X108.798 Y91.564 E2.14092
G1 X109.379 Y91.543 E2.19586
G1 X127.113 Y91.543 E3.87172
G1 X127.905 Y91.583 E3.94666
G1 X128.69 Y91.702 E4.02169
G1 X129.458 Y91.9 E4.09664
G1 X130.203 Y92.175 E4.17169
G1 X130.916 Y92.522 E4.24662
G1 X131.591 Y92.94 E4.32165
G1 X132.374 Y93.558 E4.41591
G1 X132.55 Y93.716 E4.43826
G1 X133.113 Y94.275 E4.51324
G1 X133.617 Y94.888 E4.58823
G1 X134.056 Y95.549 E4.66322
G1 X134.427 Y96.25 E4.73817
G1 X134.726 Y96.985 E4.81315
G1 X134.949 Y97.747 E4.88818
G1 X135.094 Y98.527 E4.96316
G1 X135.164 Y99.567 E5.06166
G1 X135.167 Y102.185 E5.30906
G1 X135.16 Y102.335 E5.32325
G1 X135.571 Y102.973 E5.39497
G1 X135.931 Y103.68 E5.46994
G1 X136.219 Y104.419 E5.54489
G1 X136.43 Y105.184 E5.61989
G1 X136.564 Y105.966 E5.69486
G1 X136.619 Y106.878 E5.7812
G1 X136.622 Y108.076 E5.89441
G1 X136.622 Y109.521 E6.03097
G1 X136.608 Y109.8 E6.05736
G1 X136.818 Y110.308 E6.10931
G1 X137.083 Y111.056 E6.1843
G1 X137.273 Y111.826 E6.25925
G1 X137.383 Y112.612 E6.33425
G1 X137.415 Y113.405 E6.40925
G1 X137.366 Y114.197 E6.48424
G1 X137.237 Y114.98 E6.55923
G1 X137.213 Y115.076 E6.56858
G1 X137.283 Y115.232 E6.58474
G1 X138.273 Y117.624 E6.82938
G1 X138.54 Y118.372 E6.90443
G1 X138.729 Y119.142 E6.97936
G1 X138.84 Y119.928 E7.05437
G1 X138.872 Y120.721 E7.12937
G1 X138.823 Y121.513 E7.20436
G1 X138.695 Y122.296 E7.27933
G1 X138.561 Y122.826 E7.33099
G1 X138.495 Y123.054 E7.35342
G1 X138.237 Y123.804 E7.42837
G1 X137.904 Y124.524 E7.50334
G1 X137.5 Y125.207 E7.57833
G1 X137.03 Y125.846 E7.65329
G1 X136.497 Y126.435 E7.72836
G1 X135.909 Y126.966 E7.80323
G1 X135.269 Y127.436 E7.87826
G1 X134.586 Y127.84 E7.95325
G1 X133.944 Y128.14 E8.02022
G1 X117.513 Y134.943 E9.70078
G1 X116.765 Y135.209 E9.7758
G1 X115.758 Y135.441 E9.87345
G1 X115.69 Y135.452 E9.87996
G1 X114.901 Y135.539 E9.95497
G1 X114.432 Y135.553 E9.99931
G1 X96.701 Y135.553 E11.67489
G1 X95.909 Y135.513 E11.74983
G1 X95.124 Y135.394 E11.82486
G1 X94.356 Y135.196 E11.89981
G1 X93.611 Y134.921 E11.97486
G1 X92.898 Y134.574 E12.04979
G1 X92.223 Y134.156 E12.12482
G1 X91.44 Y133.538 E12.21908
G1 X91.264 Y133.38 E12.24144
G1 X90.701 Y132.821 E12.31641
G1 X90.197 Y132.208 E12.3914
G1 X89.758 Y131.547 E12.46639
G1 X89.387 Y130.846 E12.54134
G1 X89.088 Y130.111 E12.61632
G1 X88.865 Y129.349 E12.69135
G1 X88.72 Y128.569 E12.76633
G1 X88.65 Y127.54 E12.86379
G1 X88.647 Y126.339 E12.97729
G1 X88.647 Y124.903 E13.11299
G1 X88.654 Y124.761 E13.12642
G1 X88.301 Y124.229 E13.18676
G1 X87.93 Y123.528 E13.26171
G1 X87.631 Y122.793 E13.33669
G1 X87.408 Y122.031 E13.41172
G1 X87.263 Y121.251 E13.4867
G1 X87.193 Y120.211 E13.5852
G1 X87.19 Y117.594 E13.8325
G1 X87.205 Y117.292 E13.86108
G1 X86.995 Y116.784 E13.91302
G1 X86.729 Y116.037 E13.98796
G1 X86.54 Y115.266 E14.06297
G1 X86.43 Y114.48 E14.13798
G1 X86.398 Y113.687 E14.21297
G1 X86.447 Y112.895 E14.28796
G1 X86.576 Y112.112 E14.36295
G1 X86.601 Y112.018 E14.37214
G1 X86.53 Y111.867 E14.38791
G1 X85.539 Y109.47 E14.63303
G1 X85.274 Y108.722 E14.70802
G1 X85.084 Y107.952 E14.78296
G1 X84.974 Y107.166 E14.85796
G1 X84.942 Y106.373 E14.93296
G1 X84.991 Y105.581 E15.00795
G1 X85.12 Y104.798 E15.08294
G1 X85.253 Y104.271 E15.1343
G1 X85.319 Y104.043 E15.15674
G1 X85.577 Y103.293 E15.23169
G1 X85.91 Y102.573 E15.30665
G1 X86.314 Y101.89 E15.38164
G1 X86.784 Y101.251 E15.4566
G1 X87.317 Y100.662 E15.53167
G1 X87.905 Y100.131 E15.60654
G0 F4500 X88.208 Y100.336
G1 F1800 X88.84 Y99.886 E15.67986
G1 X89.515 Y99.504 E15.75315
G1 X90.004 Y99.281 E15.80394
G1 X106.432 Y92.478 E17.48423
G1 X107.163 Y92.218 E17.55755
G1 X108.003 Y92.02 E17.63911
G1 X108.071 Y92.008 E17.64563
G1 X108.841 Y91.912 E17.71896
G1 X109.379 Y91.893 E17.76983
G1 X127.113 Y91.893 E19.4457
G1 X127.888 Y91.933 E19.51903
G1 X128.654 Y92.052 E19.59229
G1 X129.404 Y92.25 E19.66559
G1 X130.13 Y92.524 E19.73892
G1 X130.823 Y92.871 E19.81216
G1 X131.477 Y93.288 E19.88546
G1 X132.14 Y93.818 E19.96567
G1 X132.316 Y93.976 E19.98802
G1 X132.866 Y94.524 E20.06139
G1 X133.356 Y95.124 E20.1346
G1 X133.782 Y95.773 E20.20796
G1 X134.139 Y96.461 E20.28121
G1 X134.423 Y97.183 E20.35452
G1 X134.632 Y97.93 E20.42783
G1 X134.762 Y98.695 E20.50115
G1 X134.814 Y99.567 E20.5837
G1 X134.817 Y102.185 E20.83111
G1 X134.804 Y102.446 E20.8558
G1 X134.877 Y102.538 E20.8669
G1 X135.294 Y103.193 E20.94028
G1 X135.64 Y103.887 E21.01356
G1 X135.914 Y104.613 E21.08689
G1 X136.111 Y105.363 E21.16017
G1 X136.23 Y106.129 E21.23342
G1 X136.269 Y106.879 E21.30439
G1 X136.272 Y108.077 E21.41761
G1 X136.272 Y109.521 E21.55406
G1 X136.254 Y109.862 E21.58633
G1 X136.494 Y110.442 E21.64565
G1 X136.753 Y111.173 E21.71894
G1 X136.935 Y111.927 E21.79224
G1 X137.039 Y112.696 E21.86557
G1 X137.063 Y113.471 E21.93884
G1 X137.008 Y114.244 E22.01207
G1 X136.872 Y115.008 E22.08541
G1 X136.841 Y115.128 E22.09712
G1 X136.96 Y115.366 E22.12227
G1 X137.95 Y117.758 E22.3669
G1 X138.209 Y118.489 E22.44019
G1 X138.392 Y119.243 E22.51351
G1 X138.496 Y120.012 E22.58685
G1 X138.52 Y120.787 E22.66012
G1 X138.465 Y121.561 E22.73345
G1 X138.33 Y122.324 E22.80667
G1 X138.159 Y122.956 E22.86854
G1 X137.905 Y123.689 E22.94185
G1 X137.578 Y124.392 E23.01512
G1 X137.179 Y125.058 E23.08849
G1 X136.714 Y125.679 E23.1618
G1 X136.188 Y126.248 E23.23503
G1 X135.606 Y126.761 E23.30834
G1 X134.974 Y127.211 E23.38166
G1 X134.299 Y127.593 E23.45495
G1 X133.81 Y127.817 E23.50578
G1 X117.379 Y134.62 E25.18633
G1 X116.648 Y134.879 E25.25962
G1 X115.702 Y135.095 E25.35132
G1 X115.634 Y135.106 E25.35783
G1 X114.863 Y135.191 E25.43113
G1 X114.432 Y135.203 E25.47188
G1 X96.701 Y135.203 E27.14745
G1 X95.926 Y135.163 E27.22079
G1 X95.16 Y135.044 E27.29405
G1 X94.41 Y134.846 E27.36735
G1 X93.684 Y134.572 E27.44068
G1 X92.991 Y134.225 E27.51392
G1 X92.337 Y133.808 E27.58722
G1 X91.674 Y133.278 E27.66743
G1 X91.498 Y133.12 E27.68978
G1 X90.948 Y132.572 E27.76315
G1 X90.458 Y131.972 E27.83635
G1 X90.032 Y131.323 E27.90972
G1 X89.675 Y130.635 E27.98296
G1 X89.391 Y129.913 E28.05628
G1 X89.182 Y129.166 E28.12958
G1 X89.052 Y128.401 E28.20291
G1 X89 Y127.539 E28.28452
G1 X88.997 Y126.338 E28.39802
G1 X88.997 Y124.903 E28.53362
G1 X89.001 Y124.654 E28.55716
G1 X88.575 Y124.005 E28.63052
G1 X88.218 Y123.317 E28.70377
G1 X87.934 Y122.595 E28.77708
G1 X87.725 Y121.848 E28.85039
G1 X87.595 Y121.083 E28.92372
G1 X87.543 Y120.211 E29.00627
G1 X87.54 Y117.594 E29.25357
G1 X87.558 Y117.229 E29.28811
G1 X87.319 Y116.65 E29.3473
G1 X87.06 Y115.919 E29.42059
G1 X86.877 Y115.165 E29.49391
G1 X86.774 Y114.397 E29.56714
G1 X86.75 Y113.622 E29.64041
G1 X86.805 Y112.848 E29.71374
G1 X86.941 Y112.084 E29.78707
G1 X86.968 Y111.982 E29.79704
G1 X86.854 Y111.733 E29.82292
G1 X85.863 Y109.336 E30.06803
G1 X85.604 Y108.605 E30.14132
G1 X85.422 Y107.851 E30.21462
G1 X85.318 Y107.082 E30.28795
G1 X85.294 Y106.307 E30.36122
G1 X85.349 Y105.534 E30.43446
G1 X85.485 Y104.77 E30.50779
G1 X85.655 Y104.141 E30.56936
G1 X85.909 Y103.408 E30.64267
G1 X86.236 Y102.705 E30.71594
G1 X86.635 Y102.039 E30.78931
G1 X87.1 Y101.418 E30.86262
G1 X87.626 Y100.849 E30.93585
G1 X88.208 Y100.336 E31.00916
G0 F4500 X88.51 Y100.545
G1 F1800 X89.134 Y100.115 E31.08077
G1 X90.138 Y99.604 E31.18723
G1 X106.566 Y92.801 E32.86753
G1 X107.28 Y92.548 E32.93911
G1 X108.064 Y92.364 E33.01521
G1 X108.132 Y92.352 E33.02174
G1 X108.884 Y92.26 E33.09333
G1 X109.379 Y92.243 E33.14014
G1 X127.113 Y92.243 E34.816
G1 X127.869 Y92.283 E34.88754
G1 X128.617 Y92.402 E34.95912
G1 X129.348 Y92.6 E35.03069
G1 X130.055 Y92.874 E35.10234
G1 X130.728 Y93.22 E35.17385
G1 X131.361 Y93.636 E35.24543
G1 X131.906 Y94.079 E35.3118
G1 X132.082 Y94.237 E35.33415
G1 X132.618 Y94.772 E35.40572
G1 X133.095 Y95.36 E35.47727
G1 X133.507 Y95.996 E35.54888
G1 X133.85 Y96.671 E35.62043
G1 X134.119 Y97.379 E35.692
G1 X134.313 Y98.111 E35.76356
G1 X134.428 Y98.86 E35.83517
G1 X134.464 Y99.568 E35.90217
G1 X134.467 Y102.186 E36.14957
G1 X134.448 Y102.56 E36.18496
G1 X134.613 Y102.77 E36.21019
G1 X135.015 Y103.412 E36.28178
G1 X135.348 Y104.092 E36.35333
G1 X135.607 Y104.804 E36.42492
G1 X135.789 Y105.539 E36.49648
G1 X135.893 Y106.289 E36.56803
G1 X135.919 Y106.88 E36.62394
G1 X135.922 Y108.078 E36.73715
G1 X135.922 Y109.521 E36.87351
G1 X135.901 Y109.922 E36.91146
G1 X136.171 Y110.576 E36.97832
G1 X136.423 Y111.29 E37.04987
G1 X136.598 Y112.027 E37.12146
G1 X136.695 Y112.778 E37.19301
G1 X136.712 Y113.535 E37.26457
G1 X136.649 Y114.29 E37.33616
G1 X136.466 Y115.151 E37.41935
G1 X136.637 Y115.5 E37.45607
G1 X137.627 Y117.892 E37.70071
G1 X137.879 Y118.606 E37.77226
G1 X138.055 Y119.343 E37.84387
G1 X138.152 Y120.094 E37.91543
G1 X138.169 Y120.851 E37.98698
G1 X138.106 Y121.606 E38.05858
G1 X137.889 Y122.631 E38.15759
G1 X137.823 Y122.859 E38.18002
G1 X137.574 Y123.574 E38.25157
G1 X137.252 Y124.26 E38.32318
G1 X136.859 Y124.907 E38.39472
G1 X136.399 Y125.509 E38.46631
G1 X135.879 Y126.06 E38.53791
G1 X135.304 Y126.552 E38.60942
G1 X134.68 Y126.982 E38.68104
G1 X133.676 Y127.493 E38.7875
G1 X117.245 Y134.296 E40.46805
G1 X116.531 Y134.549 E40.53963
G1 X115.646 Y134.75 E40.6254
G1 X115.578 Y134.761 E40.63191
G1 X114.825 Y134.842 E40.70348
G1 X114.432 Y134.853 E40.74063
G1 X96.701 Y134.853 E42.41621
G1 X95.945 Y134.813 E42.48775
G1 X95.197 Y134.694 E42.55933
G1 X94.466 Y134.496 E42.63089
G1 X93.759 Y134.222 E42.70255
G1 X93.086 Y133.876 E42.77406
G1 X92.453 Y133.46 E42.84564
G1 X91.908 Y133.017 E42.91201
G1 X91.732 Y132.859 E42.93436
G1 X91.196 Y132.324 E43.00593
G1 X90.719 Y131.736 E43.07748
G1 X90.307 Y131.1 E43.14909
G1 X89.964 Y130.425 E43.22064
G1 X89.695 Y129.717 E43.29221
G1 X89.501 Y128.985 E43.36377
G1 X89.386 Y128.236 E43.43538
G1 X89.35 Y127.538 E43.50143
G1 X89.347 Y126.337 E43.61493
G1 X89.347 Y124.903 E43.75044
G1 X89.366 Y124.546 E43.78422
G1 X89.262 Y124.418 E43.79981
G1 X88.85 Y123.782 E43.87142
G1 X88.507 Y123.107 E43.94297
G1 X88.238 Y122.399 E44.01454
G1 X88.044 Y121.667 E44.0861
G1 X87.929 Y120.918 E44.15771
G1 X87.893 Y120.21 E44.22471
G1 X87.89 Y117.593 E44.47201
G1 X87.912 Y117.17 E44.51204
G1 X87.642 Y116.517 E44.57882
G1 X87.39 Y115.803 E44.65037
G1 X87.215 Y115.066 E44.72195
G1 X87.118 Y114.315 E44.79351
G1 X87.101 Y113.557 E44.86516
G1 X87.164 Y112.803 E44.93666
G1 X87.307 Y112.059 E45.00826
G1 X87.336 Y111.954 E45.01855
G1 X87.177 Y111.599 E45.05531
G1 X86.186 Y109.202 E45.30042
G1 X85.934 Y108.488 E45.37197
G1 X85.759 Y107.751 E45.44356
G1 X85.662 Y107 E45.51511
G1 X85.645 Y106.243 E45.58667
G1 X85.708 Y105.488 E45.65826
G1 X85.925 Y104.466 E45.757
G1 X85.991 Y104.238 E45.77943
G1 X86.24 Y103.523 E45.85097
G1 X86.562 Y102.837 E45.92259
G1 X86.955 Y102.19 E45.99413
G1 X87.415 Y101.588 E46.06572
G1 X87.935 Y101.037 E46.13732
G1 X88.51 Y100.545 E46.20883
G0 F4500 X88.811 Y100.756
G1 F1800 X89.426 Y100.348 E46.27857
G1 X90.272 Y99.927 E46.36787
G1 X106.7 Y93.124 E48.04817
G1 X107.396 Y92.879 E48.1179
G1 X108.125 Y92.709 E48.18863
G1 X108.193 Y92.697 E48.19516
G1 X108.926 Y92.608 E48.26494
G1 X109.379 Y92.593 E48.30777
G1 X127.113 Y92.593 E49.98363
G1 X127.851 Y92.633 E50.05348
G1 X128.579 Y92.752 E50.12318
G1 X129.291 Y92.95 E50.19302
G1 X129.977 Y93.223 E50.26279
G1 X130.63 Y93.569 E50.33263
G1 X131.242 Y93.983 E50.40245
G1 X131.672 Y94.339 E50.45521
G1 X131.848 Y94.497 E50.47756
G1 X132.37 Y95.02 E50.54739
G1 X132.833 Y95.596 E50.61722
G1 X133.231 Y96.218 E50.68701
G1 X133.559 Y96.88 E50.75682
G1 X133.814 Y97.573 E50.8266
G1 X133.992 Y98.29 E50.89642
G1 X134.091 Y99.022 E50.96622
G1 X134.114 Y99.568 E51.01786
G1 X134.117 Y102.186 E51.26527
G1 X134.091 Y102.673 E51.31135
G1 X134.347 Y103.001 E51.35067
G1 X134.736 Y103.63 E51.42056
G1 X135.054 Y104.296 E51.4903
G1 X135.298 Y104.994 E51.56018
G1 X135.465 Y105.713 E51.62993
G1 X135.554 Y106.446 E51.69971
G1 X135.569 Y106.881 E51.74084
G1 X135.572 Y108.079 E51.85405
G1 X135.572 Y109.521 E51.99032
G1 X135.547 Y109.983 E52.03405
G1 X135.847 Y110.709 E52.10828
G1 X136.092 Y111.406 E52.1781
G1 X136.26 Y112.126 E52.24796
G1 X136.35 Y112.859 E52.31775
G1 X136.359 Y113.597 E52.3875
G1 X136.289 Y114.333 E52.45736
G1 X136.101 Y115.191 E52.54037
G1 X136.313 Y115.634 E52.58678
G1 X137.303 Y118.026 E52.83142
G1 X137.548 Y118.723 E52.90124
G1 X137.717 Y119.442 E52.97103
G1 X137.806 Y120.175 E53.04081
G1 X137.816 Y120.914 E53.11065
G1 X137.746 Y121.649 E53.18042
G1 X137.553 Y122.534 E53.26602
G1 X137.487 Y122.762 E53.28845
G1 X137.243 Y123.459 E53.35824
G1 X136.926 Y124.126 E53.42803
G1 X136.538 Y124.755 E53.49787
G1 X136.085 Y125.338 E53.56764
G1 X135.571 Y125.869 E53.63747
G1 X135.003 Y126.341 E53.70726
G1 X134.388 Y126.749 E53.77701
G1 X133.542 Y127.17 E53.86631
G1 X117.111 Y133.973 E55.54686
G1 X116.414 Y134.218 E55.61668
G1 X115.59 Y134.404 E55.69651
G1 X115.522 Y134.415 E55.70302
G1 X114.432 Y134.503 E55.80636
G1 X96.701 Y134.503 E57.48194
G1 X95.963 Y134.463 E57.55178
G1 X95.235 Y134.344 E57.62149
G1 X94.523 Y134.146 E57.69133
G1 X93.837 Y133.873 E57.7611
G1 X93.184 Y133.527 E57.83093
G1 X92.572 Y133.113 E57.90076
G1 X92.142 Y132.757 E57.95351
G1 X91.966 Y132.599 E57.97586
G1 X91.444 Y132.076 E58.04569
G1 X90.981 Y131.5 E58.11553
G1 X90.583 Y130.878 E58.18531
G1 X90.255 Y130.216 E58.25513
G1 X90 Y129.523 E58.32491
G1 X89.822 Y128.806 E58.39472
G1 X89.723 Y128.074 E58.46453
G1 X89.7 Y127.537 E58.51532
G1 X89.697 Y126.336 E58.62881
G1 X89.697 Y124.903 E58.76423
G1 X89.723 Y124.429 E58.80909
G1 X89.524 Y124.182 E58.83907
G1 X89.126 Y123.56 E58.90885
G1 X88.798 Y122.898 E58.97867
G1 X88.543 Y122.205 E59.04845
G1 X88.365 Y121.488 E59.11826
G1 X88.266 Y120.756 E59.18806
G1 X88.243 Y120.21 E59.23971
G1 X88.24 Y117.593 E59.48701
G1 X88.266 Y117.108 E59.53291
G1 X87.966 Y116.383 E59.60706
G1 X87.721 Y115.686 E59.67688
G1 X87.553 Y114.967 E59.74665
G1 X87.463 Y114.234 E59.81644
G1 X87.454 Y113.495 E59.88628
G1 X87.524 Y112.76 E59.95605
G1 X87.721 Y111.905 E60.03897
G1 X87.501 Y111.466 E60.08537
G1 X86.51 Y109.069 E60.33048
G1 X86.265 Y108.372 E60.4003
G1 X86.097 Y107.652 E60.47017
G1 X86.007 Y106.919 E60.53996
G1 X85.998 Y106.181 E60.6097
G1 X86.068 Y105.445 E60.67957
G1 X86.261 Y104.563 E60.76489
G1 X86.327 Y104.335 E60.78732
G1 X86.571 Y103.638 E60.85711
G1 X86.888 Y102.971 E60.92689
G1 X87.276 Y102.342 E60.99673
G1 X87.729 Y101.759 E61.0665
G1 X88.243 Y101.228 E61.13634
G1 X88.811 Y100.756 E61.20613
G0 F4500 X88.55 Y101.422
G1 F1800 X89.11 Y100.971 E61.27408
G1 X89.717 Y100.585 E61.34206
G1 X90.406 Y100.251 E61.41441
G1 X106.834 Y93.448 E63.09471
G1 X107.513 Y93.21 E63.1627
G1 X108.186 Y93.054 E63.22799
G1 X108.254 Y93.042 E63.23451
G1 X108.968 Y92.956 E63.30247
G1 X109.379 Y92.943 E63.34133
G1 X127.113 Y92.943 E65.01719
G1 X127.831 Y92.983 E65.08515
G1 X128.541 Y93.102 E65.15318
G1 X129.233 Y93.3 E65.2212
G1 X129.898 Y93.573 E65.28913
G1 X130.53 Y93.918 E65.35717
G1 X131.119 Y94.331 E65.42515
G1 X131.614 Y94.758 E65.48693
G1 X132.122 Y95.267 E65.55489
G1 X132.57 Y95.83 E65.62288
G1 X132.953 Y96.439 E65.69087
G1 X133.266 Y97.087 E65.75887
G1 X133.506 Y97.765 E65.82684
G1 X133.668 Y98.466 E65.89483
G1 X133.752 Y99.181 E65.96286
G1 X133.764 Y99.569 E65.99954
G1 X133.767 Y102.187 E66.24695
G1 X133.735 Y102.783 E66.30335
G1 X134.081 Y103.232 E66.35692
G1 X134.455 Y103.847 E66.42494
G1 X134.758 Y104.499 E66.49288
G1 X134.987 Y105.181 E66.56086
G1 X135.139 Y105.884 E66.62883
G1 X135.219 Y106.882 E66.72345
G1 X135.222 Y108.08 E66.83666
G1 X135.222 Y109.521 E66.97283
G1 X135.193 Y110.042 E67.02214
G1 X135.524 Y110.843 E67.10405
G1 X135.761 Y111.522 E67.17201
G1 X135.922 Y112.223 E67.23998
G1 X136.004 Y112.938 E67.30799
