;FLAVOR:UltiGCode
;TIME:2563
;MATERIAL:4399
;MATERIAL2:0
;NOZZLE_DIAMETER:0.4
;MINX:83.66
;MINY:81.568
;MINZ:0.27
;MAXX:139.34
;MAXY:148.238
;MAXZ:9.87
;Generated with Cura_SteamEngine 4.8.0
M82 ;absolute extrusion mode
G0 F3000 Y50 ;avoid prime blob
G92 E0
G92 E0
G10
;LAYER_COUNT:65
;LAYER:0
M107
G0 F4500 X86.069 Y83.943 Z0.27
;TYPE:SKIRT
G11
G1 F1800 X86.651 Y83.404 E0.07496
G1 X87.284 Y82.926 E0.14992
G1 X87.963 Y82.515 E0.22492
G1 X88.679 Y82.174 E0.29987
G1 X89.426 Y81.906 E0.37487
G1 X90.196 Y81.715 E0.44984
G1 X90.982 Y81.603 E0.52486
G1 X91.703 Y81.57 E0.59307
G1 X131.29 Y81.568 E4.33404
G1 X132.082 Y81.608 E4.40898
G1 X132.866 Y81.727 E4.48392
G1 X133.635 Y81.925 E4.55896
G1 X134.38 Y82.199 E4.63397
G1 X135.093 Y82.547 E4.70895
G1 X135.767 Y82.965 E4.78389
G1 X136.69 Y83.711 E4.89604
G1 X136.863 Y83.874 E4.91851
G1 X137.413 Y84.447 E4.99356
G1 X137.902 Y85.072 E5.06855
G1 X138.325 Y85.743 E5.14351
G1 X138.679 Y86.453 E5.21848
G1 X138.96 Y87.195 E5.29346
G1 X139.164 Y87.962 E5.36846
G1 X139.291 Y88.745 E5.44342
G1 X139.338 Y89.604 E5.52472
G1 X139.34 Y99.198 E6.43135
G1 X139.3 Y99.991 E6.50639
G1 X139.181 Y100.775 E6.58133
G1 X138.983 Y101.544 E6.65637
G1 X138.709 Y102.288 E6.73129
G1 X138.362 Y103.002 E6.80631
G1 X137.944 Y103.676 E6.88126
G1 X137.461 Y104.306 E6.95628
G1 X137.033 Y104.768 E7.01579
G1 X136.862 Y104.939 E7.03864
G1 X136.274 Y105.472 E7.11364
G1 X135.635 Y105.942 E7.1886
G1 X134.951 Y106.345 E7.26362
G1 X134.231 Y106.678 E7.33859
G1 X133.481 Y106.936 E7.41354
G1 X132.838 Y107.088 E7.47598
G1 X132.838 Y107.718 E7.53551
G1 X132.856 Y107.721 E7.53724
G1 X133.624 Y107.919 E7.61219
G1 X134.369 Y108.193 E7.6872
G1 X135.082 Y108.541 E7.76217
G1 X135.757 Y108.959 E7.8372
G1 X136.35 Y109.412 E7.90772
G1 X136.533 Y109.566 E7.93032
G1 X137.113 Y110.106 E8.00521
G1 X137.636 Y110.703 E8.08021
G1 X138.097 Y111.349 E8.15521
G1 X138.49 Y112.038 E8.23017
G1 X138.812 Y112.764 E8.30522
G1 X139.059 Y113.518 E8.3802
G1 X139.229 Y114.293 E8.45518
G1 X139.32 Y115.081 E8.53014
G1 X139.337 Y115.59 E8.57827
G1 X139.338 Y125.197 E9.48613
G1 X139.298 Y125.99 E9.56116
G1 X139.179 Y126.774 E9.6361
G1 X138.981 Y127.543 E9.71114
G1 X138.707 Y128.287 E9.78606
G1 X138.359 Y129 E9.86104
G1 X137.942 Y129.675 E9.93602
G1 X137.458 Y130.304 E10.01102
G1 X136.881 Y130.913 E10.0903
G1 X136.708 Y131.077 E10.11283
G1 X136.105 Y131.593 E10.18782
G1 X135.454 Y132.046 E10.26277
G1 X134.76 Y132.431 E10.33777
G1 X134.031 Y132.745 E10.41278
G1 X133.274 Y132.983 E10.48777
G1 X132.497 Y133.144 E10.56276
G1 X131.708 Y133.226 E10.63772
G1 X131.29 Y133.237 E10.67723
G1 X116.838 Y133.238 E12.04295
G1 X116.839 Y140.191 E12.7
G1 X116.799 Y140.983 E12.77494
G1 X116.68 Y141.768 E12.84997
G1 X116.482 Y142.536 E12.92492
G1 X116.208 Y143.281 E12.99994
G1 X115.86 Y143.994 E13.07491
G1 X115.439 Y144.675 E13.15057
G1 X115.34 Y144.818 E13.16701
G1 X114.856 Y145.446 E13.24193
G1 X114.311 Y146.023 E13.31694
G1 X113.711 Y146.542 E13.39191
G1 X113.062 Y146.999 E13.46692
G1 X112.37 Y147.387 E13.54189
G1 X111.642 Y147.704 E13.61692
G1 X110.887 Y147.946 E13.69185
G1 X110.111 Y148.111 E13.76682
G1 X109.476 Y148.186 E13.82724
G1 X109.129 Y148.213 E13.86013
G1 X108.522 Y148.237 E13.91754
G1 X106.725 Y148.238 E14.08736
G1 X105.933 Y148.198 E14.1623
G1 X105.148 Y148.079 E14.23733
G1 X104.38 Y147.882 E14.31225
G1 X103.635 Y147.608 E14.38726
G1 X103.503 Y147.544 E14.40113
G1 X103.253 Y147.66 E14.42717
G1 X102.503 Y147.921 E14.50222
G1 X101.731 Y148.105 E14.57721
G1 X100.945 Y148.21 E14.65215
G1 X100.298 Y148.237 E14.71334
G1 X98.225 Y148.238 E14.90924
G1 X97.432 Y148.198 E14.98428
G1 X96.648 Y148.079 E15.05921
G1 X95.879 Y147.882 E15.13423
G1 X95.135 Y147.608 E15.20915
G1 X94.421 Y147.261 E15.28417
G1 X93.746 Y146.843 E15.3592
G1 X93.15 Y146.388 E15.43006
G1 X92.967 Y146.234 E15.45266
G1 X92.387 Y145.694 E15.52755
G1 X91.864 Y145.097 E15.60255
G1 X91.403 Y144.451 E15.67755
G1 X91.01 Y143.762 E15.75251
G1 X90.688 Y143.036 E15.82756
G1 X90.441 Y142.282 E15.90254
G1 X90.271 Y141.507 E15.97752
G1 X90.18 Y140.719 E16.05248
G1 X90.163 Y140.21 E16.10061
G1 X90.163 Y133.084 E16.77401
G1 X90.135 Y133.08 E16.77669
G1 X89.366 Y132.882 E16.85173
G1 X88.621 Y132.609 E16.92671
G1 X87.908 Y132.261 E17.00168
G1 X87.233 Y131.844 E17.07666
G1 X86.604 Y131.36 E17.15166
G1 X86.065 Y130.861 E17.22108
G1 X85.523 Y130.282 E17.29602
G1 X85.041 Y129.651 E17.37106
G1 X84.626 Y128.975 E17.44602
G1 X84.281 Y128.261 E17.52096
G1 X84.009 Y127.515 E17.59599
G1 X83.814 Y126.746 E17.67096
G1 X83.697 Y125.961 E17.74596
G1 X83.66 Y125.177 E17.82013
G1 X83.663 Y123.901 E17.94072
G1 X83.662 Y115.603 E18.72488
G1 X83.702 Y114.81 E18.79991
G1 X83.821 Y114.026 E18.87485
G1 X84.019 Y113.258 E18.9498
G1 X84.293 Y112.513 E19.02481
G1 X84.641 Y111.8 E19.09979
G1 X85.058 Y111.125 E19.17476
G1 X85.542 Y110.496 E19.24977
G1 X86.119 Y109.887 E19.32904
G1 X86.292 Y109.723 E19.35157
G1 X86.895 Y109.207 E19.42657
G1 X87.546 Y108.754 E19.50152
G1 X88.24 Y108.369 E19.57652
G1 X88.969 Y108.055 E19.65153
G1 X89.726 Y107.817 E19.72652
G1 X90.503 Y107.656 E19.8015
G1 X91.292 Y107.574 E19.87646
G1 X91.71 Y107.563 E19.91598
G1 X106.163 Y107.563 E21.28179
G1 X106.163 Y107.243 E21.31203
G1 X91.71 Y107.244 E22.67784
G1 X90.918 Y107.204 E22.75277
G1 X90.133 Y107.085 E22.8278
G1 X89.365 Y106.887 E22.90275
G1 X88.62 Y106.613 E22.97777
G1 X87.907 Y106.265 E23.05274
G1 X87.233 Y105.847 E23.12769
G1 X86.31 Y105.101 E23.23984
G1 X86.137 Y104.938 E23.2623
G1 X85.587 Y104.365 E23.33736
G1 X85.098 Y103.74 E23.41235
G1 X84.675 Y103.069 E23.48731
G1 X84.321 Y102.359 E23.56228
G1 X84.04 Y101.617 E23.63726
G1 X83.836 Y100.85 E23.71226
G1 X83.709 Y100.067 E23.78722
G1 X83.662 Y99.206 E23.86871
G1 X83.662 Y89.615 E24.77506
G1 X83.702 Y88.823 E24.85
G1 X83.821 Y88.038 E24.92503
G1 X84.019 Y87.27 E24.99998
G1 X84.294 Y86.525 E25.07502
G1 X84.641 Y85.812 E25.14996
G1 X85.059 Y85.137 E25.22498
G1 X85.542 Y84.508 E25.29993
G1 X85.903 Y84.113 E25.35049
G1 X86.069 Y83.943 E25.37295
G0 F4500 X86.319 Y84.188
G1 F1800 X86.889 Y83.661 E25.44631
G1 X87.51 Y83.197 E25.51956
G1 X88.175 Y82.798 E25.59285
G1 X88.878 Y82.47 E25.66616
G1 X89.611 Y82.217 E25.73944
G1 X90.366 Y82.04 E25.81272
G1 X91.136 Y81.941 E25.88608
G1 X91.703 Y81.92 E25.9397
G1 X131.29 Y81.918 E29.68067
G1 X132.064 Y81.958 E29.75391
G1 X132.831 Y82.077 E29.82726
G1 X133.581 Y82.275 E29.90057
G1 X134.306 Y82.549 E29.97381
G1 X135 Y82.896 E30.04713
G1 X135.654 Y83.313 E30.12043
G1 X136.45 Y83.966 E30.21772
G1 X136.623 Y84.129 E30.24019
G1 X137.16 Y84.689 E30.31351
G1 X137.636 Y85.302 E30.38685
G1 X138.046 Y85.96 E30.46011
G1 X138.386 Y86.657 E30.5334
G1 X138.653 Y87.385 E30.60667
G1 X138.843 Y88.137 E30.67997
G1 X138.955 Y88.905 E30.75332
G1 X138.988 Y89.604 E30.81944
G1 X138.99 Y99.198 E31.72608
G1 X138.95 Y99.973 E31.79941
G1 X138.831 Y100.739 E31.87267
G1 X138.633 Y101.489 E31.94597
G1 X138.36 Y102.215 E32.01927
G1 X138.013 Y102.909 E32.09259
G1 X137.596 Y103.563 E32.16589
G1 X137.114 Y104.171 E32.23921
G1 X136.615 Y104.692 E32.30738
G1 X136.039 Y105.211 E32.38065
G1 X135.413 Y105.669 E32.45395
G1 X134.742 Y106.059 E32.52729
G1 X134.036 Y106.379 E32.60054
G1 X133.3 Y106.624 E32.67385
G1 X132.542 Y106.792 E32.74722
G1 X132.487 Y106.798 E32.75245
G1 X132.488 Y108.019 E32.86783
G1 X132.82 Y108.071 E32.89959
G1 X133.57 Y108.269 E32.97289
G1 X134.295 Y108.543 E33.04613
G1 X134.989 Y108.89 E33.11946
G1 X135.643 Y109.307 E33.19275
G1 X136.124 Y109.679 E33.25022
G1 X136.307 Y109.833 E33.27282
G1 X136.874 Y110.363 E33.34616
G1 X137.384 Y110.948 E33.4195
G1 X137.83 Y111.582 E33.49276
G1 X138.209 Y112.259 E33.56608
G1 X138.516 Y112.971 E33.63935
G1 X138.748 Y113.711 E33.71263
G1 X138.903 Y114.471 E33.78593
G1 X138.987 Y115.59 E33.89198
G1 X138.988 Y125.197 E34.79984
G1 X138.948 Y125.972 E34.87317
G1 X138.829 Y126.738 E34.94643
G1 X138.631 Y127.488 E35.01973
G1 X138.357 Y128.214 E35.09306
G1 X138.01 Y128.908 E35.16639
G1 X137.594 Y129.562 E35.23963
G1 X137.112 Y130.17 E35.31295
G1 X136.64 Y130.659 E35.37718
G1 X136.467 Y130.823 E35.39971
G1 X135.877 Y131.327 E35.47303
G1 X135.239 Y131.768 E35.54633
G1 X134.559 Y132.14 E35.61957
G1 X133.844 Y132.44 E35.69285
G1 X133.101 Y132.666 E35.76624
G1 X132.34 Y132.813 E35.83948
G1 X131.29 Y132.887 E35.93895
G1 X116.488 Y132.888 E37.33774
G1 X116.489 Y140.191 E38.02787
G1 X116.449 Y140.966 E38.10121
G1 X116.33 Y141.732 E38.17447
G1 X116.132 Y142.482 E38.24777
G1 X115.858 Y143.208 E38.3211
G1 X115.511 Y143.901 E38.39434
G1 X115.151 Y144.475 E38.45837
G1 X115.052 Y144.618 E38.4748
G1 X114.578 Y145.232 E38.5481
G1 X114.044 Y145.795 E38.62143
G1 X113.454 Y146.299 E38.69476
G1 X112.816 Y146.739 E38.768
G1 X112.136 Y147.112 E38.84129
G1 X111.421 Y147.413 E38.9146
G1 X110.679 Y147.638 E38.98788
G1 X109.917 Y147.786 E39.06123
G1 X109.102 Y147.864 E39.1386
G1 X108.522 Y147.887 E39.19345
G1 X106.725 Y147.888 E39.36327
G1 X105.951 Y147.848 E39.43651
G1 X105.184 Y147.729 E39.50986
G1 X104.434 Y147.532 E39.58314
G1 X103.708 Y147.259 E39.65643
G1 X103.505 Y147.157 E39.6779
G1 X103.056 Y147.362 E39.72455
G1 X102.321 Y147.609 E39.79782
G1 X101.564 Y147.779 E39.87114
G1 X100.794 Y147.87 E39.94441
G1 X100.298 Y147.887 E39.99131
G1 X98.225 Y147.888 E40.18721
G1 X97.45 Y147.848 E40.26054
G1 X96.684 Y147.729 E40.3338
G1 X95.933 Y147.532 E40.40717
G1 X95.208 Y147.258 E40.48041
G1 X94.514 Y146.912 E40.55369
G1 X93.86 Y146.495 E40.62699
G1 X93.376 Y146.121 E40.68479
G1 X93.193 Y145.967 E40.7074
G1 X92.626 Y145.437 E40.78074
G1 X92.116 Y144.852 E40.85408
G1 X91.67 Y144.218 E40.92733
G1 X91.291 Y143.541 E41.00065
G1 X90.984 Y142.829 E41.07393
G1 X90.752 Y142.089 E41.14721
G1 X90.597 Y141.329 E41.22051
G1 X90.513 Y140.21 E41.32655
G1 X90.512 Y132.783 E42.02841
G1 X90.17 Y132.73 E42.06111
G1 X89.42 Y132.533 E42.13439
G1 X88.695 Y132.259 E42.20763
G1 X88.001 Y131.912 E42.28096
G1 X87.347 Y131.495 E42.35425
G1 X86.482 Y130.777 E42.46049
G1 X86.308 Y130.609 E42.48334
G1 X85.779 Y130.043 E42.55655
G1 X85.31 Y129.424 E42.62994
G1 X84.908 Y128.761 E42.70321
G1 X84.576 Y128.06 E42.77651
G1 X84.319 Y127.329 E42.84974
G1 X84.137 Y126.574 E42.92313
G1 X84.035 Y125.806 E42.99634
G1 X84.01 Y125.178 E43.05574
G1 X84.013 Y123.902 E43.17632
G1 X84.012 Y115.603 E43.96057
G1 X84.052 Y114.828 E44.03391
G1 X84.171 Y114.062 E44.10716
G1 X84.369 Y113.312 E44.18047
G1 X84.643 Y112.586 E44.2538
G1 X84.99 Y111.893 E44.32704
G1 X85.406 Y111.238 E44.40036
G1 X85.888 Y110.63 E44.47368
G1 X86.36 Y110.141 E44.53791
G1 X86.533 Y109.977 E44.56044
G1 X87.123 Y109.473 E44.63376
G1 X87.761 Y109.032 E44.70706
G1 X88.441 Y108.66 E44.7803
G1 X89.156 Y108.36 E44.85358
G1 X89.899 Y108.134 E44.92697
G1 X90.66 Y107.987 E45.00021
G1 X91.71 Y107.913 E45.09968
G1 X106.513 Y107.913 E46.49857
G1 X106.513 Y106.893 E46.59496
G1 X91.71 Y106.894 E47.99384
G1 X90.936 Y106.854 E48.06708
G1 X90.169 Y106.735 E48.14043
G1 X89.419 Y106.537 E48.21373
G1 X88.694 Y106.263 E48.28697
G1 X88 Y105.916 E48.3603
G1 X87.346 Y105.499 E48.4336
G1 X86.55 Y104.846 E48.53089
G1 X86.377 Y104.683 E48.55335
G1 X85.84 Y104.123 E48.62667
G1 X85.364 Y103.51 E48.70001
G1 X84.954 Y102.852 E48.77328
G1 X84.614 Y102.155 E48.84656
G1 X84.347 Y101.427 E48.91984
G1 X84.157 Y100.675 E48.99314
G1 X84.045 Y99.907 E49.06648
G1 X84.012 Y99.206 E49.1328
G1 X84.012 Y89.615 E50.03915
G1 X84.052 Y88.84 E50.11248
G1 X84.171 Y88.074 E50.18574
G1 X84.369 Y87.324 E50.25904
G1 X84.643 Y86.598 E50.33237
G1 X84.99 Y85.905 E50.40561
G1 X85.407 Y85.251 E50.47891
G1 X85.889 Y84.643 E50.55223
G1 X86.319 Y84.188 E50.61139
G0 F4500 X86.569 Y84.432
G1 F1800 X87.126 Y83.919 E50.68295
G1 X87.734 Y83.467 E50.75454
G1 X88.387 Y83.082 E50.82618
G1 X89.076 Y82.768 E50.89773
G1 X89.794 Y82.529 E50.96924
G1 X90.534 Y82.366 E51.04085
G1 X91.287 Y82.282 E51.11245
G1 X91.703 Y82.27 E51.15178
G1 X131.29 Y82.268 E54.89275
G1 X132.046 Y82.308 E54.96429
G1 X132.794 Y82.427 E55.03587
G1 X133.525 Y82.625 E55.10744
G1 X134.231 Y82.899 E55.179
G1 X134.905 Y83.245 E55.2506
G1 X135.538 Y83.661 E55.32218
G1 X136.21 Y84.221 E55.40484
G1 X136.383 Y84.384 E55.4273
G1 X136.906 Y84.932 E55.49889
G1 X137.369 Y85.531 E55.57043
G1 X137.765 Y86.177 E55.64204
G1 X138.092 Y86.86 E55.7136
G1 X138.344 Y87.574 E55.78515
G1 X138.52 Y88.311 E55.85675
G1 X138.617 Y89.062 E55.92831
G1 X138.638 Y89.605 E55.97966
G1 X138.64 Y99.199 E56.8863
G1 X138.6 Y99.955 E56.95784
G1 X138.481 Y100.703 E57.02941
G1 X138.283 Y101.434 E57.10098
G1 X138.01 Y102.14 E57.17251
G1 X137.664 Y102.814 E57.24411
G1 X137.248 Y103.447 E57.31569
G1 X136.538 Y104.273 E57.41862
G1 X136.367 Y104.444 E57.44147
G1 X135.804 Y104.951 E57.51307
G1 X135.191 Y105.395 E57.5846
G1 X134.534 Y105.773 E57.65622
G1 X133.842 Y106.079 E57.72773
G1 X133.12 Y106.31 E57.79936
G1 X132.379 Y106.464 E57.87088
G1 X132.137 Y106.482 E57.89382
G1 X132.138 Y108.318 E58.06732
G1 X132.783 Y108.421 E58.12904
G1 X133.514 Y108.619 E58.20061
G1 X134.22 Y108.893 E58.27218
G1 X134.894 Y109.239 E58.34377
G1 X135.527 Y109.655 E58.41535
G1 X136.082 Y110.101 E58.48264
G1 X136.635 Y110.619 E58.55424
G1 X137.13 Y111.192 E58.6258
G1 X137.562 Y111.814 E58.69736
G1 X137.926 Y112.478 E58.76892
G1 X138.219 Y113.176 E58.84046
G1 X138.435 Y113.902 E58.91203
G1 X138.575 Y114.647 E58.98367
G1 X138.637 Y115.59 E59.07298
G1 X138.638 Y125.197 E59.98084
G1 X138.598 Y125.954 E60.05247
G1 X138.479 Y126.701 E60.12395
G1 X138.281 Y127.433 E60.19561
G1 X138.008 Y128.139 E60.26715
G1 X137.661 Y128.812 E60.3387
G1 X137.246 Y129.446 E60.41031
G1 X136.766 Y130.031 E60.48182
G1 X136.399 Y130.405 E60.53133
G1 X136.226 Y130.569 E60.55386
G1 X135.65 Y131.06 E60.62539
G1 X135.025 Y131.488 E60.69697
G1 X134.358 Y131.848 E60.7686
G1 X133.658 Y132.135 E60.84009
G1 X132.93 Y132.347 E60.91174
G1 X132.185 Y132.481 E60.98328
G1 X131.29 Y132.537 E61.06802
G1 X116.138 Y132.538 E62.49988
G1 X116.139 Y140.191 E63.22309
G1 X116.099 Y140.947 E63.29463
G1 X115.98 Y141.695 E63.36621
G1 X115.782 Y142.426 E63.43778
G1 X115.509 Y143.133 E63.5094
G1 X115.162 Y143.806 E63.58095
G1 X114.863 Y144.276 E63.63359
G1 X114.764 Y144.419 E63.65003
G1 X114.301 Y145.018 E63.72157
G1 X113.777 Y145.565 E63.79315
G1 X113.198 Y146.054 E63.86477
G1 X112.571 Y146.479 E63.93635
G1 X111.903 Y146.835 E64.00788
G1 X111.201 Y147.119 E64.07945
G1 X110.473 Y147.328 E64.15102
G1 X109.422 Y147.488 E64.25149
G1 X109.075 Y147.515 E64.28438
G1 X108.522 Y147.537 E64.33668
G1 X106.725 Y147.538 E64.50649
G1 X105.969 Y147.498 E64.57803
G1 X105.221 Y147.379 E64.64961
G1 X104.489 Y147.182 E64.72124
G1 X103.783 Y146.909 E64.79278
G1 X103.514 Y146.771 E64.82135
G1 X102.861 Y147.062 E64.8889
G1 X102.141 Y147.295 E64.96042
G1 X101.4 Y147.451 E65.03198
G1 X100.297 Y147.537 E65.13653
G1 X98.224 Y147.538 E65.33243
G1 X97.468 Y147.498 E65.40397
G1 X96.72 Y147.379 E65.47554
G1 X95.989 Y147.182 E65.54709
G1 X95.283 Y146.909 E65.61862
G1 X94.609 Y146.563 E65.69021
G1 X93.976 Y146.147 E65.76179
G1 X93.418 Y145.699 E65.82942
G1 X92.865 Y145.181 E65.90102
G1 X92.37 Y144.608 E65.97258
G1 X91.938 Y143.986 E66.04414
G1 X91.574 Y143.322 E66.1157
G1 X91.281 Y142.624 E66.18724
G1 X91.065 Y141.898 E66.25882
G1 X90.925 Y141.153 E66.33045
G1 X90.863 Y140.209 E66.41985
G1 X90.862 Y132.484 E67.14986
G1 X90.207 Y132.38 E67.21254
G1 X89.476 Y132.183 E67.28408
G1 X88.77 Y131.909 E67.35565
G1 X88.096 Y131.563 E67.42724
G1 X87.463 Y131.148 E67.49877
G1 X86.725 Y130.526 E67.58998
G1 X86.551 Y130.358 E67.61283
G1 X86.035 Y129.804 E67.68438
G1 X85.58 Y129.198 E67.75599
G1 X85.191 Y128.548 E67.82757
G1 X84.873 Y127.861 E67.89911
G1 X84.629 Y127.144 E67.97069
G1 X84.463 Y126.405 E68.04226
G1 X84.375 Y125.653 E68.11381
G1 X84.36 Y125.179 E68.15863
G1 X84.363 Y123.903 E68.27921
G1 X84.362 Y115.603 E69.06356
G1 X84.402 Y114.847 E69.1351
G1 X84.521 Y114.099 E69.20667
G1 X84.719 Y113.368 E69.27824
G1 X84.992 Y112.661 E69.34986
G1 X85.339 Y111.988 E69.42142
G1 X85.754 Y111.355 E69.49295
G1 X86.234 Y110.769 E69.56453
G1 X86.601 Y110.395 E69.61405
G1 X86.774 Y110.231 E69.63657
G1 X87.35 Y109.74 E69.7081
G1 X87.975 Y109.312 E69.77968
G1 X88.642 Y108.952 E69.85131
G1 X89.342 Y108.665 E69.9228
