;FLAVOR:UltiGCode
;TIME:4980
;MATERIAL:9000
;MATERIAL2:0
;NOZZLE_DIAMETER:0.4
;MINX:85.648
;MINY:59.484
;MINZ:0.27
;MAXX:140.055
;MAXY:141.728
;MAXZ:19.92
;Generated with Cura_SteamEngine 4.8.0
M82 ;absolute extrusion mode
G0 F3000 Y50 ;avoid prime blob
G92 E0
G92 E0
G10
;LAYER_COUNT:132
;LAYER:0
M107
G0 F4500 X90.232 Y72.358 Z0.27
;TYPE:SKIRT
G11
G1 F1800 X90.659 Y71.897 E0.05938
G1 X90.762 Y71.794 E0.07315
G1 X91.35 Y71.261 E0.14814
G1 X91.989 Y70.791 E0.2231
G1 X92.673 Y70.388 E0.29813
G1 X93.393 Y70.055 E0.37309
G1 X94.143 Y69.797 E0.44804
G1 X94.916 Y69.615 E0.52309
G1 X95.702 Y69.512 E0.598
G1 X96.33 Y69.487 E0.65739
G1 X100.354 Y69.487 E1.03766
G1 X100.354 Y67.462 E1.22902
G1 X100.394 Y66.67 E1.30396
G1 X100.513 Y65.885 E1.37899
G1 X100.711 Y65.117 E1.45394
G1 X100.986 Y64.372 E1.52899
G1 X101.333 Y63.659 E1.60392
G1 X101.751 Y62.984 E1.67895
G1 X102.234 Y62.355 E1.75389
G1 X102.661 Y61.894 E1.81328
G1 X102.764 Y61.791 E1.82704
G1 X103.352 Y61.258 E1.90204
G1 X103.991 Y60.788 E1.977
G1 X104.675 Y60.385 E2.05202
G1 X105.395 Y60.052 E2.12699
G1 X106.145 Y59.794 E2.20194
G1 X106.918 Y59.612 E2.27698
G1 X107.704 Y59.509 E2.35189
G1 X108.332 Y59.484 E2.41129
G1 X111.076 Y59.484 E2.6706
G1 X111.868 Y59.524 E2.74554
G1 X112.653 Y59.643 E2.82057
G1 X113.421 Y59.841 E2.89551
G1 X114.166 Y60.116 E2.97056
G1 X114.211 Y60.138 E2.97529
G1 X114.396 Y60.052 E2.99457
G1 X115.146 Y59.794 E3.06952
G1 X115.919 Y59.612 E3.14457
G1 X116.705 Y59.509 E3.21948
G1 X117.333 Y59.484 E3.27888
G1 X120.077 Y59.484 E3.53818
G1 X120.869 Y59.524 E3.61312
G1 X121.654 Y59.643 E3.68815
G1 X122.422 Y59.841 E3.7631
G1 X123.167 Y60.116 E3.83815
G1 X123.88 Y60.463 E3.91308
G1 X124.555 Y60.881 E3.98811
G1 X125.184 Y61.364 E4.06305
G1 X125.645 Y61.791 E4.12243
G1 X125.748 Y61.894 E4.1362
G1 X126.281 Y62.482 E4.2112
G1 X126.751 Y63.121 E4.28616
G1 X127.154 Y63.805 E4.36118
G1 X127.487 Y64.525 E4.43614
G1 X127.745 Y65.275 E4.5111
G1 X127.927 Y66.048 E4.58614
G1 X128.03 Y66.834 E4.66105
G1 X128.055 Y67.462 E4.72045
G1 X128.055 Y69.487 E4.91181
G1 X132.077 Y69.487 E5.29189
G1 X132.869 Y69.527 E5.36683
G1 X133.654 Y69.646 E5.44186
G1 X134.422 Y69.844 E5.51681
G1 X135.167 Y70.119 E5.59185
G1 X135.88 Y70.466 E5.66679
G1 X136.555 Y70.884 E5.74181
G1 X137.184 Y71.367 E5.81676
G1 X137.645 Y71.794 E5.87614
G1 X137.748 Y71.897 E5.8899
G1 X138.281 Y72.485 E5.9649
G1 X138.751 Y73.124 E6.03986
G1 X139.154 Y73.808 E6.11488
G1 X139.487 Y74.528 E6.18985
G1 X139.745 Y75.278 E6.2648
G1 X139.927 Y76.051 E6.33985
G1 X140.03 Y76.837 E6.41476
G1 X140.055 Y77.465 E6.47415
G1 X140.055 Y97.182 E8.33741
G1 X140.015 Y97.974 E8.41235
G1 X139.896 Y98.759 E8.48738
G1 X139.698 Y99.527 E8.56233
G1 X139.423 Y100.272 E8.63737
G1 X139.076 Y100.985 E8.71231
G1 X138.658 Y101.66 E8.78733
G1 X138.175 Y102.289 E8.86228
G1 X137.748 Y102.75 E8.92166
G1 X137.645 Y102.853 E8.93542
G1 X137.057 Y103.386 E9.01042
G1 X136.418 Y103.856 E9.08538
G1 X135.734 Y104.259 E9.16041
G1 X135.014 Y104.592 E9.23537
G1 X134.264 Y104.85 E9.31032
G1 X133.491 Y105.032 E9.38537
G1 X132.705 Y105.135 E9.46028
G1 X132.077 Y105.16 E9.51967
G1 X125.352 Y105.16 E10.15518
G1 X125.352 Y106.055 E10.23976
G1 X129.375 Y106.055 E10.61994
G1 X130.167 Y106.095 E10.69487
G1 X130.952 Y106.215 E10.76992
G1 X131.72 Y106.413 E10.84487
G1 X132.465 Y106.687 E10.91988
G1 X133.178 Y107.035 E10.99486
G1 X133.852 Y107.452 E11.06975
G1 X134.481 Y107.936 E11.14476
G1 X134.942 Y108.362 E11.20407
G1 X135.045 Y108.465 E11.21784
G1 X135.578 Y109.053 E11.29283
G1 X136.048 Y109.692 E11.3678
G1 X136.451 Y110.376 E11.44282
G1 X136.784 Y111.096 E11.51778
G1 X137.042 Y111.846 E11.59273
G1 X137.224 Y112.619 E11.66778
G1 X137.327 Y113.405 E11.74269
G1 X137.352 Y114.033 E11.80209
G1 X137.352 Y133.75 E13.66534
G1 X137.312 Y134.542 E13.74028
G1 X137.193 Y135.327 E13.81531
G1 X136.995 Y136.095 E13.89026
G1 X136.72 Y136.84 E13.96531
G1 X136.373 Y137.553 E14.04024
G1 X135.955 Y138.228 E14.11527
G1 X135.472 Y138.857 E14.19021
G1 X135.045 Y139.318 E14.24959
G1 X134.942 Y139.421 E14.26336
G1 X134.354 Y139.954 E14.33836
G1 X133.715 Y140.424 E14.41332
G1 X133.031 Y140.827 E14.48834
G1 X132.311 Y141.16 E14.5633
G1 X131.561 Y141.418 E14.63825
G1 X130.788 Y141.6 E14.7133
G1 X130.002 Y141.703 E14.78821
G1 X129.374 Y141.728 E14.84761
G1 X93.626 Y141.728 E18.22579
G1 X92.834 Y141.688 E18.30073
G1 X92.049 Y141.569 E18.37576
G1 X91.281 Y141.371 E18.45071
G1 X90.536 Y141.096 E18.52576
G1 X89.823 Y140.749 E18.60069
G1 X89.148 Y140.331 E18.67572
G1 X88.519 Y139.848 E18.75066
G1 X88.058 Y139.421 E18.81004
G1 X87.955 Y139.318 E18.82381
G1 X87.422 Y138.73 E18.8988
G1 X86.952 Y138.091 E18.97377
G1 X86.549 Y137.407 E19.04879
G1 X86.216 Y136.687 E19.12375
G1 X85.958 Y135.937 E19.1987
G1 X85.776 Y135.164 E19.27375
G1 X85.673 Y134.378 E19.34866
G1 X85.648 Y133.75 E19.40806
G1 X85.648 Y114.032 E21.27141
G1 X85.688 Y113.24 E21.34635
G1 X85.807 Y112.455 E21.42138
G1 X86.005 Y111.687 E21.49632
G1 X86.28 Y110.942 E21.57137
G1 X86.627 Y110.229 E21.6463
G1 X87.045 Y109.554 E21.72133
G1 X87.528 Y108.925 E21.79628
G1 X87.955 Y108.464 E21.85566
G1 X88.058 Y108.361 E21.86942
G1 X88.646 Y107.828 E21.94442
G1 X89.285 Y107.358 E22.01938
G1 X89.969 Y106.955 E22.0944
G1 X90.689 Y106.622 E22.16937
G1 X91.439 Y106.364 E22.24432
G1 X92.212 Y106.182 E22.31936
G1 X92.998 Y106.079 E22.39428
G1 X93.626 Y106.054 E22.45367
G1 X97.651 Y106.054 E22.83403
G1 X97.651 Y105.16 E22.91852
G1 X96.33 Y105.16 E23.04335
G1 X95.538 Y105.12 E23.11829
G1 X94.753 Y105.001 E23.19332
G1 X93.985 Y104.803 E23.26827
G1 X93.24 Y104.528 E23.34331
G1 X92.527 Y104.181 E23.41825
G1 X91.852 Y103.763 E23.49328
G1 X91.223 Y103.28 E23.56822
G1 X90.762 Y102.853 E23.6276
G1 X90.659 Y102.75 E23.64137
G1 X90.126 Y102.162 E23.71636
G1 X89.656 Y101.523 E23.79132
G1 X89.253 Y100.839 E23.86635
G1 X88.92 Y100.119 E23.94131
G1 X88.662 Y99.369 E24.01626
G1 X88.48 Y98.596 E24.09131
G1 X88.377 Y97.81 E24.16622
G1 X88.352 Y97.182 E24.22561
G1 X88.352 Y77.465 E26.08887
G1 X88.392 Y76.673 E26.16381
G1 X88.511 Y75.888 E26.23884
G1 X88.709 Y75.12 E26.31379
G1 X88.984 Y74.375 E26.38883
G1 X89.331 Y73.662 E26.46377
G1 X89.749 Y72.987 E26.5388
G1 X90.232 Y72.358 E26.61374
G0 F4500 X90.579 Y72.493
G1 F1800 X91.009 Y72.041 E26.67269
G1 X91.585 Y71.522 E26.74596
G1 X92.211 Y71.064 E26.81926
G1 X92.882 Y70.674 E26.8926
G1 X93.588 Y70.354 E26.96586
G1 X94.324 Y70.109 E27.03916
G1 X95.082 Y69.941 E27.11253
G1 X95.852 Y69.852 E27.18578
G1 X96.33 Y69.837 E27.23097
G1 X100.704 Y69.837 E27.64431
G1 X100.704 Y67.462 E27.86875
G1 X100.744 Y66.687 E27.94209
G1 X100.863 Y65.921 E28.01534
G1 X101.061 Y65.171 E28.08865
G1 X101.335 Y64.445 E28.16198
G1 X101.682 Y63.752 E28.23522
G1 X102.099 Y63.098 E28.30851
G1 X102.581 Y62.49 E28.38183
G1 X103.011 Y62.038 E28.44079
G1 X103.587 Y61.519 E28.51406
G1 X104.213 Y61.061 E28.58736
G1 X104.884 Y60.671 E28.6607
G1 X105.59 Y60.351 E28.73395
G1 X106.326 Y60.106 E28.80725
G1 X107.084 Y59.938 E28.88062
G1 X107.854 Y59.849 E28.95387
G1 X108.332 Y59.834 E28.99906
G1 X111.076 Y59.834 E29.25837
G1 X111.851 Y59.874 E29.33171
G1 X112.617 Y59.993 E29.40496
G1 X113.367 Y60.191 E29.47827
G1 X114.093 Y60.465 E29.5516
G1 X114.21 Y60.524 E29.56398
G1 X114.591 Y60.351 E29.60352
G1 X115.327 Y60.106 E29.67683
G1 X116.085 Y59.938 E29.7502
G1 X116.855 Y59.849 E29.82344
G1 X117.333 Y59.834 E29.86864
G1 X120.077 Y59.834 E30.12795
G1 X120.852 Y59.874 E30.20128
G1 X121.618 Y59.993 E30.27454
G1 X122.368 Y60.191 E30.34784
G1 X123.094 Y60.465 E30.42117
G1 X123.787 Y60.812 E30.49441
G1 X124.441 Y61.229 E30.56771
G1 X125.049 Y61.711 E30.64103
G1 X125.501 Y62.141 E30.69998
G1 X126.02 Y62.717 E30.77325
G1 X126.478 Y63.343 E30.84655
G1 X126.868 Y64.014 E30.91989
G1 X127.188 Y64.72 E30.99314
G1 X127.433 Y65.456 E31.06645
G1 X127.601 Y66.214 E31.13982
G1 X127.69 Y66.984 E31.21307
G1 X127.705 Y67.462 E31.25826
G1 X127.705 Y69.837 E31.4827
G1 X132.077 Y69.837 E31.89585
G1 X132.852 Y69.877 E31.96919
G1 X133.618 Y69.996 E32.04244
G1 X134.368 Y70.194 E32.11574
G1 X135.094 Y70.468 E32.18907
G1 X135.787 Y70.815 E32.26231
G1 X136.441 Y71.232 E32.33561
G1 X137.049 Y71.714 E32.40893
G1 X137.501 Y72.144 E32.46789
G1 X138.02 Y72.72 E32.54116
G1 X138.478 Y73.346 E32.61446
G1 X138.868 Y74.017 E32.6878
G1 X139.188 Y74.723 E32.76105
G1 X139.433 Y75.459 E32.83435
G1 X139.601 Y76.217 E32.90772
G1 X139.69 Y76.987 E32.98097
G1 X139.705 Y77.465 E33.02616
G1 X139.705 Y97.182 E34.88942
G1 X139.665 Y97.957 E34.96276
G1 X139.546 Y98.723 E35.03601
G1 X139.348 Y99.473 E35.10931
G1 X139.074 Y100.199 E35.18264
G1 X138.727 Y100.892 E35.25588
G1 X138.31 Y101.546 E35.32918
G1 X137.828 Y102.154 E35.4025
G1 X137.398 Y102.606 E35.46146
G1 X136.822 Y103.125 E35.53473
G1 X136.196 Y103.583 E35.60802
G1 X135.525 Y103.973 E35.68137
G1 X134.819 Y104.293 E35.75462
G1 X134.083 Y104.538 E35.82792
G1 X133.325 Y104.706 E35.90129
G1 X132.555 Y104.795 E35.97454
G1 X132.077 Y104.81 E36.01973
G1 X125.002 Y104.81 E36.68832
G1 X125.002 Y106.405 E36.83905
G1 X129.375 Y106.405 E37.2523
G1 X130.149 Y106.445 E37.32554
G1 X130.916 Y106.565 E37.3989
G1 X131.666 Y106.762 E37.47218
G1 X132.391 Y107.036 E37.54542
G1 X133.085 Y107.384 E37.61879
G1 X133.739 Y107.8 E37.69203
G1 X134.347 Y108.282 E37.76536
G1 X134.798 Y108.712 E37.82424
G1 X135.317 Y109.288 E37.89751
G1 X135.775 Y109.914 E37.97081
G1 X136.165 Y110.585 E38.04415
G1 X136.485 Y111.291 E38.1174
G1 X136.73 Y112.027 E38.19071
G1 X136.898 Y112.785 E38.26408
G1 X136.987 Y113.555 E38.33733
G1 X137.002 Y114.033 E38.38252
G1 X137.002 Y133.75 E40.24578
G1 X136.962 Y134.525 E40.31911
G1 X136.843 Y135.291 E40.39237
G1 X136.645 Y136.041 E40.46567
G1 X136.371 Y136.767 E40.539
G1 X136.024 Y137.46 E40.61224
G1 X135.607 Y138.114 E40.68554
G1 X135.125 Y138.722 E40.75886
G1 X134.695 Y139.174 E40.81781
G1 X134.119 Y139.693 E40.89108
G1 X133.493 Y140.151 E40.96438
G1 X132.822 Y140.541 E41.03772
G1 X132.116 Y140.861 E41.11097
G1 X131.38 Y141.106 E41.18428
G1 X130.622 Y141.274 E41.25765
G1 X129.852 Y141.363 E41.33089
G1 X129.374 Y141.378 E41.37609
G1 X93.626 Y141.378 E44.75427
G1 X92.851 Y141.338 E44.82761
G1 X92.085 Y141.219 E44.90086
G1 X91.335 Y141.021 E44.97417
G1 X90.609 Y140.747 E45.0475
G1 X89.916 Y140.4 E45.12074
G1 X89.262 Y139.983 E45.19403
G1 X88.654 Y139.501 E45.26736
G1 X88.202 Y139.071 E45.32631
G1 X87.683 Y138.495 E45.39958
G1 X87.225 Y137.869 E45.47288
G1 X86.835 Y137.198 E45.54622
G1 X86.515 Y136.492 E45.61947
G1 X86.27 Y135.756 E45.69278
G1 X86.102 Y134.998 E45.76614
G1 X86.013 Y134.228 E45.83939
G1 X85.998 Y133.75 E45.88459
G1 X85.998 Y114.032 E47.74794
G1 X86.038 Y113.257 E47.82127
G1 X86.157 Y112.491 E47.89453
G1 X86.355 Y111.741 E47.96783
G1 X86.629 Y111.015 E48.04116
G1 X86.976 Y110.322 E48.1144
G1 X87.393 Y109.668 E48.1877
G1 X87.875 Y109.06 E48.26102
G1 X88.305 Y108.608 E48.31997
G1 X88.881 Y108.089 E48.39324
G1 X89.507 Y107.631 E48.46654
G1 X90.178 Y107.241 E48.53988
G1 X90.884 Y106.921 E48.61313
G1 X91.62 Y106.676 E48.68644
G1 X92.378 Y106.508 E48.75981
G1 X93.148 Y106.419 E48.83306
G1 X93.626 Y106.404 E48.87825
G1 X98.001 Y106.404 E49.29169
G1 X98.001 Y104.81 E49.44232
G1 X96.33 Y104.81 E49.60023
G1 X95.555 Y104.77 E49.67357
G1 X94.789 Y104.651 E49.74682
G1 X94.039 Y104.453 E49.82012
G1 X93.313 Y104.179 E49.89346
G1 X92.62 Y103.832 E49.96669
G1 X91.966 Y103.415 E50.03999
G1 X91.358 Y102.933 E50.11331
G1 X90.906 Y102.503 E50.17227
G1 X90.387 Y101.927 E50.24554
G1 X89.929 Y101.301 E50.31884
G1 X89.539 Y100.63 E50.39218
G1 X89.219 Y99.924 E50.46543
G1 X88.974 Y99.188 E50.53873
G1 X88.806 Y98.43 E50.6121
G1 X88.717 Y97.66 E50.68535
G1 X88.702 Y97.182 E50.73054
G1 X88.702 Y77.465 E52.5938
G1 X88.742 Y76.69 E52.66714
G1 X88.861 Y75.924 E52.74039
G1 X89.059 Y75.174 E52.81369
G1 X89.333 Y74.448 E52.88702
G1 X89.68 Y73.755 E52.96026
G1 X90.097 Y73.101 E53.03356
G1 X90.579 Y72.493 E53.10688
G0 F4500 X90.445 Y73.217
G1 F1800 X91.154 Y72.392 E53.20968
G1 X91.257 Y72.289 E53.22344
G1 X91.82 Y71.782 E53.29504
G1 X92.433 Y71.338 E53.36657
G1 X93.09 Y70.96 E53.4382
G1 X93.782 Y70.654 E53.5097
G1 X94.504 Y70.423 E53.58134
G1 X95.245 Y70.269 E53.65286
G1 X96.33 Y70.187 E53.75568
G1 X101.054 Y70.187 E54.2021
G1 X101.054 Y67.462 E54.45961
G1 X101.094 Y66.706 E54.53115
G1 X101.213 Y65.958 E54.60273
G1 X101.411 Y65.227 E54.6743
G1 X101.685 Y64.52 E54.74595
G1 X102.031 Y63.847 E54.81746
G1 X102.447 Y63.214 E54.88904
G1 X103.156 Y62.389 E54.99184
G1 X103.259 Y62.286 E55.0056
G1 X103.822 Y61.779 E55.0772
G1 X104.435 Y61.335 E55.14873
G1 X105.092 Y60.957 E55.22036
G1 X105.784 Y60.651 E55.29186
G1 X106.506 Y60.42 E55.3635
G1 X107.247 Y60.266 E55.43502
G1 X108.332 Y60.184 E55.53784
G1 X111.076 Y60.184 E55.79715
G1 X111.832 Y60.224 E55.86869
G1 X112.58 Y60.343 E55.94027
G1 X113.311 Y60.541 E56.01184
G1 X114.018 Y60.815 E56.08349
G1 X114.201 Y60.909 E56.10293
G1 X114.785 Y60.651 E56.16326
G1 X115.507 Y60.42 E56.2349
G1 X116.248 Y60.266 E56.30642
G1 X117.333 Y60.184 E56.40925
G1 X120.077 Y60.184 E56.66855
G1 X120.833 Y60.224 E56.7401
G1 X121.581 Y60.343 E56.81167
G1 X122.312 Y60.541 E56.88324
G1 X123.019 Y60.815 E56.95489
G1 X123.692 Y61.161 E57.0264
G1 X124.325 Y61.577 E57.09798
G1 X125.15 Y62.286 E57.20078
G1 X125.253 Y62.389 E57.21455
G1 X125.76 Y62.952 E57.28614
G1 X126.204 Y63.565 E57.35767
G1 X126.582 Y64.222 E57.4293
G1 X126.888 Y64.914 E57.5008
G1 X127.119 Y65.636 E57.57244
G1 X127.273 Y66.377 E57.64396
G1 X127.355 Y67.462 E57.74678
G1 X127.355 Y70.187 E58.0043
G1 X132.077 Y70.187 E58.45053
G1 X132.833 Y70.227 E58.52207
G1 X133.581 Y70.346 E58.59364
G1 X134.312 Y70.544 E58.66521
G1 X135.019 Y70.818 E58.73686
G1 X135.692 Y71.164 E58.80838
G1 X136.325 Y71.58 E58.87996
G1 X137.15 Y72.289 E58.98275
G1 X137.253 Y72.392 E58.99652
G1 X137.76 Y72.955 E59.06812
G1 X138.204 Y73.568 E59.13964
G1 X138.582 Y74.225 E59.21127
G1 X138.888 Y74.917 E59.28277
G1 X139.119 Y75.639 E59.35441
G1 X139.273 Y76.38 E59.42593
G1 X139.355 Y77.465 E59.52876
G1 X139.355 Y97.182 E61.39201
G1 X139.315 Y97.938 E61.46355
G1 X139.196 Y98.686 E61.53513
G1 X138.998 Y99.417 E61.6067
G1 X138.724 Y100.124 E61.67835
G1 X138.378 Y100.797 E61.74986
G1 X137.962 Y101.43 E61.82144
G1 X137.253 Y102.255 E61.92424
G1 X137.15 Y102.358 E61.938
G1 X136.587 Y102.865 E62.0096
G1 X135.974 Y103.309 E62.08113
G1 X135.317 Y103.687 E62.15276
G1 X134.625 Y103.993 E62.22426
G1 X133.903 Y104.224 E62.2959
G1 X133.162 Y104.378 E62.36742
G1 X132.077 Y104.46 E62.47024
G1 X124.652 Y104.46 E63.1719
G1 X124.652 Y106.755 E63.38878
G1 X129.375 Y106.755 E63.83511
G1 X130.131 Y106.795 E63.90665
G1 X130.879 Y106.915 E63.97824
G1 X131.61 Y107.112 E64.04978
G1 X132.316 Y107.386 E64.12135
G1 X132.989 Y107.733 E64.1929
G1 X133.623 Y108.148 E64.26451
G1 X134.447 Y108.857 E64.36723
G1 X134.55 Y108.96 E64.381
G1 X135.057 Y109.523 E64.4526
G1 X135.501 Y110.136 E64.52412
G1 X135.879 Y110.793 E64.59575
G1 X136.185 Y111.485 E64.66725
G1 X136.416 Y112.207 E64.73889
G1 X136.57 Y112.948 E64.81041
G1 X136.652 Y114.033 E64.91324
G1 X136.652 Y133.75 E66.77649
G1 X136.612 Y134.506 E66.84804
G1 X136.493 Y135.254 E66.91961
G1 X136.295 Y135.985 E66.99118
G1 X136.021 Y136.692 E67.06283
G1 X135.675 Y137.365 E67.13434
G1 X135.259 Y137.998 E67.20592
G1 X134.55 Y138.823 E67.30872
G1 X134.447 Y138.926 E67.32249
G1 X133.884 Y139.433 E67.39408
G1 X133.271 Y139.877 E67.46561
G1 X132.614 Y140.255 E67.53724
G1 X131.922 Y140.561 E67.60874
G1 X131.2 Y140.792 E67.68038
G1 X130.459 Y140.946 E67.7519
G1 X129.374 Y141.028 E67.85472
G1 X93.626 Y141.028 E71.23291
G1 X92.87 Y140.988 E71.30445
G1 X92.122 Y140.869 E71.37603
G1 X91.391 Y140.671 E71.44759
G1 X90.684 Y140.397 E71.51925
G1 X90.011 Y140.051 E71.59076
G1 X89.378 Y139.635 E71.66234
G1 X88.553 Y138.926 E71.76514
G1 X88.45 Y138.823 E71.7789
G1 X87.943 Y138.26 E71.8505
G1 X87.499 Y137.647 E71.92203
G1 X87.121 Y136.99 E71.99366
G1 X86.815 Y136.298 E72.06516
G1 X86.584 Y135.576 E72.13679
G1 X86.43 Y134.835 E72.20831
G1 X86.348 Y133.75 E72.31114
G1 X86.348 Y114.032 E74.17449
G1 X86.388 Y113.276 E74.24603
G1 X86.507 Y112.528 E74.31761
G1 X86.705 Y111.797 E74.38918
G1 X86.979 Y111.09 E74.46083
G1 X87.325 Y110.417 E74.53234
