;FLAVOR:UltiGCode
;TIME:1139
;MATERIAL:1916
;MATERIAL2:0
;NOZZLE_DIAMETER:0.4
;MINX:86.579
;MINY:118.062
;MINZ:0.27
;MAXX:136.339
;MAXY:149.944
;MAXZ:19.92
;Generated with Cura_SteamEngine 4.8.0
M82 ;absolute extrusion mode
G0 F3000 Y50 ;avoid prime blob
G92 E0
G92 E0
G10
;LAYER_COUNT:132
;LAYER:0
M107
G0 F4500 X89.577 Y119.836 Z0.27
;TYPE:SKIRT
G11
G1 F1800 X90.216 Y119.366 E0.07496
G1 X90.9 Y118.963 E0.14998
G1 X91.62 Y118.63 E0.22495
G1 X92.37 Y118.372 E0.2999
G1 X93.143 Y118.19 E0.37495
G1 X93.929 Y118.087 E0.44986
G1 X94.557 Y118.062 E0.50925
G1 X114.383 Y118.062 E2.38281
G1 X115.175 Y118.102 E2.45775
G1 X115.96 Y118.221 E2.53278
G1 X116.728 Y118.419 E2.60773
G1 X117.485 Y118.699 E2.684
G1 X117.548 Y118.726 E2.69048
G1 X118.261 Y119.075 E2.76549
G1 X118.935 Y119.493 E2.84044
G1 X119.563 Y119.978 E2.91542
G1 X120.014 Y120.396 E2.97353
G1 X134.032 Y134.414 E4.84694
G1 X134.565 Y135.002 E4.92194
G1 X135.035 Y135.641 E4.9969
G1 X135.438 Y136.325 E5.07193
G1 X135.771 Y137.045 E5.14689
G1 X136.029 Y137.795 E5.22184
G1 X136.211 Y138.568 E5.29689
G1 X136.314 Y139.354 E5.3718
G1 X136.339 Y139.982 E5.43119
G1 X136.339 Y140.126 E5.4448
G1 X136.299 Y140.918 E5.51974
G1 X136.18 Y141.703 E5.59477
G1 X135.982 Y142.471 E5.66972
G1 X135.707 Y143.216 E5.74476
G1 X135.36 Y143.929 E5.8197
G1 X134.942 Y144.604 E5.89473
G1 X134.459 Y145.233 E5.96967
G1 X134.035 Y145.692 E6.02872
G1 X132.094 Y147.635 E6.28826
G1 X131.506 Y148.167 E6.36319
G1 X130.867 Y148.637 E6.43815
G1 X130.184 Y149.041 E6.51314
G1 X129.464 Y149.374 E6.5881
G1 X128.714 Y149.633 E6.66309
G1 X127.941 Y149.815 E6.73813
G1 X127.155 Y149.919 E6.81306
G1 X126.523 Y149.944 E6.87283
G1 X126.378 Y149.944 E6.88653
G1 X125.586 Y149.904 E6.96147
G1 X124.801 Y149.785 E7.0365
G1 X124.033 Y149.587 E7.11145
G1 X123.288 Y149.312 E7.18649
G1 X122.575 Y148.965 E7.26143
G1 X121.9 Y148.547 E7.33646
G1 X121.271 Y148.064 E7.4114
G1 X120.81 Y147.637 E7.47078
G1 X109.935 Y136.762 E8.92415
G1 X94.557 Y136.762 E10.37737
G1 X93.765 Y136.722 E10.45231
G1 X92.98 Y136.603 E10.52734
G1 X92.212 Y136.405 E10.60229
G1 X91.467 Y136.13 E10.67733
G1 X90.754 Y135.783 E10.75227
G1 X90.079 Y135.365 E10.8273
G1 X89.45 Y134.882 E10.90224
G1 X88.989 Y134.455 E10.96162
G1 X88.886 Y134.352 E10.97539
G1 X88.353 Y133.764 E11.05038
G1 X87.883 Y133.125 E11.12534
G1 X87.48 Y132.441 E11.20037
G1 X87.147 Y131.721 E11.27533
G1 X86.889 Y130.971 E11.35028
G1 X86.707 Y130.198 E11.42533
G1 X86.604 Y129.412 E11.50024
G1 X86.579 Y128.784 E11.55963
G1 X86.579 Y126.04 E11.81894
G1 X86.619 Y125.248 E11.89388
G1 X86.738 Y124.463 E11.96891
G1 X86.936 Y123.695 E12.04386
G1 X87.211 Y122.95 E12.11891
G1 X87.558 Y122.237 E12.19384
G1 X87.976 Y121.562 E12.26887
G1 X88.459 Y120.933 E12.34381
G1 X88.886 Y120.472 E12.40319
G1 X88.989 Y120.369 E12.41696
G1 X89.577 Y119.836 E12.49196
G0 F4500 X89.812 Y120.097
G1 F1800 X90.438 Y119.639 E12.56525
G1 X91.109 Y119.249 E12.6386
G1 X91.815 Y118.929 E12.71185
G1 X92.551 Y118.684 E12.78515
G1 X93.309 Y118.516 E12.85852
G1 X94.079 Y118.427 E12.93177
G1 X94.557 Y118.412 E12.97696
G1 X114.383 Y118.412 E14.85052
G1 X115.158 Y118.452 E14.92386
G1 X115.924 Y118.571 E14.99711
G1 X116.674 Y118.769 E15.07041
G1 X117.347 Y119.02 E15.13829
G1 X117.41 Y119.047 E15.14477
G1 X118.106 Y119.389 E15.21805
G1 X118.764 Y119.801 E15.29142
G1 X119.375 Y120.278 E15.36467
G1 X119.767 Y120.643 E15.41528
G1 X133.785 Y134.661 E17.28869
G1 X134.304 Y135.237 E17.36196
G1 X134.762 Y135.863 E17.43526
G1 X135.152 Y136.534 E17.5086
G1 X135.472 Y137.24 E17.58185
G1 X135.717 Y137.976 E17.65516
G1 X135.885 Y138.734 E17.72853
G1 X135.974 Y139.504 E17.80178
G1 X135.989 Y140.126 E17.86057
G1 X135.949 Y140.901 E17.93391
G1 X135.83 Y141.667 E18.00716
G1 X135.632 Y142.417 E18.08047
G1 X135.358 Y143.143 E18.1538
G1 X135.011 Y143.836 E18.22704
G1 X134.594 Y144.49 E18.30033
G1 X134.112 Y145.098 E18.37366
G1 X133.788 Y145.444 E18.41845
G1 X131.847 Y147.387 E18.67798
G1 X131.271 Y147.907 E18.75132
G1 X130.645 Y148.365 E18.82462
G1 X129.975 Y148.756 E18.89792
G1 X129.268 Y149.075 E18.97122
G1 X128.532 Y149.321 E19.04456
G1 X127.775 Y149.489 E19.11783
G1 X127.005 Y149.579 E19.19109
G1 X126.378 Y149.594 E19.25036
G1 X125.603 Y149.554 E19.3237
G1 X124.837 Y149.435 E19.39695
G1 X124.087 Y149.237 E19.47026
G1 X123.361 Y148.963 E19.54359
G1 X122.668 Y148.616 E19.61683
G1 X122.014 Y148.199 E19.69012
G1 X121.406 Y147.717 E19.76344
G1 X121.057 Y147.39 E19.80864
G1 X110.079 Y136.412 E21.27577
G1 X94.557 Y136.412 E22.7426
G1 X93.782 Y136.372 E22.81594
G1 X93.016 Y136.253 E22.88919
G1 X92.266 Y136.055 E22.9625
G1 X91.54 Y135.781 E23.03583
G1 X90.847 Y135.434 E23.10907
G1 X90.193 Y135.017 E23.18236
G1 X89.585 Y134.535 E23.25568
G1 X89.133 Y134.105 E23.31464
G1 X88.614 Y133.529 E23.38791
G1 X88.156 Y132.903 E23.46121
G1 X87.766 Y132.232 E23.53455
G1 X87.446 Y131.526 E23.6078
G1 X87.201 Y130.79 E23.6811
G1 X87.033 Y130.032 E23.75447
G1 X86.944 Y129.262 E23.82772
G1 X86.929 Y128.784 E23.87292
G1 X86.929 Y126.04 E24.13222
G1 X86.969 Y125.265 E24.20556
G1 X87.088 Y124.499 E24.27881
G1 X87.286 Y123.749 E24.35212
G1 X87.56 Y123.023 E24.42545
G1 X87.907 Y122.33 E24.49869
G1 X88.324 Y121.676 E24.57198
G1 X88.806 Y121.068 E24.6453
G1 X89.236 Y120.616 E24.70426
G1 X89.812 Y120.097 E24.77753
G0 F4500 X90.047 Y120.357
G1 F1800 X90.66 Y119.913 E24.84906
G1 X91.317 Y119.535 E24.92068
G1 X92.009 Y119.229 E24.99219
G1 X92.731 Y118.998 E25.06382
G1 X93.472 Y118.844 E25.13534
G1 X94.557 Y118.762 E25.23817
G1 X114.383 Y118.762 E27.11173
G1 X115.139 Y118.802 E27.18327
G1 X115.887 Y118.921 E27.25484
G1 X116.618 Y119.119 E27.32641
G1 X117.209 Y119.342 E27.3861
G1 X117.272 Y119.369 E27.39258
G1 X117.952 Y119.704 E27.46422
G1 X118.592 Y120.108 E27.53574
G1 X119.186 Y120.578 E27.60732
G1 X119.519 Y120.891 E27.65051
G1 X133.537 Y134.909 E29.52392
G1 X134.044 Y135.472 E29.59551
G1 X134.488 Y136.085 E29.66704
G1 X134.866 Y136.742 E29.73867
G1 X135.172 Y137.434 E29.81017
G1 X135.403 Y138.156 E29.88181
G1 X135.557 Y138.897 E29.95333
G1 X135.639 Y139.982 E30.05615
G1 X135.639 Y140.126 E30.06976
G1 X135.599 Y140.882 E30.1413
G1 X135.48 Y141.63 E30.21288
G1 X135.282 Y142.361 E30.28445
G1 X135.008 Y143.068 E30.3561
G1 X134.662 Y143.741 E30.42761
G1 X134.246 Y144.374 E30.49919
G1 X133.54 Y145.197 E30.60166
G1 X131.599 Y147.14 E30.86119
G1 X131.036 Y147.647 E30.93279
G1 X130.423 Y148.091 E31.00432
G1 X129.767 Y148.469 E31.07587
G1 X129.074 Y148.775 E31.14746
G1 X128.353 Y149.007 E31.21903
G1 X127.611 Y149.161 E31.29064
G1 X126.523 Y149.244 E31.39376
G1 X126.378 Y149.244 E31.40746
G1 X125.622 Y149.204 E31.479
G1 X124.874 Y149.085 E31.55058
G1 X124.143 Y148.887 E31.62215
G1 X123.436 Y148.613 E31.6938
G1 X122.763 Y148.267 E31.76531
G1 X122.13 Y147.851 E31.83689
G1 X121.305 Y147.142 E31.93969
G1 X110.225 Y136.062 E33.42045
G1 X94.557 Y136.062 E34.90108
G1 X93.801 Y136.022 E34.97262
G1 X93.053 Y135.903 E35.0442
G1 X92.322 Y135.705 E35.11577
G1 X91.615 Y135.431 E35.18742
G1 X90.942 Y135.085 E35.25893
G1 X90.309 Y134.669 E35.33051
G1 X89.484 Y133.96 E35.43331
G1 X89.381 Y133.857 E35.44707
G1 X88.874 Y133.294 E35.51867
G1 X88.43 Y132.681 E35.5902
G1 X88.052 Y132.024 E35.66183
G1 X87.746 Y131.332 E35.73333
G1 X87.515 Y130.61 E35.80496
G1 X87.361 Y129.869 E35.87649
G1 X87.279 Y128.784 E35.97931
G1 X87.279 Y126.04 E36.23862
G1 X87.319 Y125.284 E36.31016
G1 X87.438 Y124.536 E36.38174
G1 X87.636 Y123.805 E36.4533
G1 X87.91 Y123.098 E36.52496
G1 X88.256 Y122.425 E36.59647
G1 X88.672 Y121.792 E36.66805
G1 X89.381 Y120.967 E36.77085
G1 X89.484 Y120.864 E36.78461
G1 X90.047 Y120.357 E36.85621
G0 F4500 X90.281 Y120.618
G1 F1800 X90.881 Y120.187 E36.92602
G1 X91.524 Y119.823 E36.99584
G1 X92.202 Y119.531 E37.06561
G1 X92.908 Y119.314 E37.1354
G1 X93.634 Y119.175 E37.20526
G1 X94.557 Y119.112 E37.29268
G1 X114.383 Y119.112 E39.16624
G1 X115.121 Y119.152 E39.23608
G1 X115.849 Y119.271 E39.30579
G1 X116.561 Y119.469 E39.37563
G1 X117.071 Y119.664 E39.42723
G1 X117.134 Y119.691 E39.4337
G1 X117.797 Y120.018 E39.50356
G1 X118.42 Y120.415 E39.57337
G1 X118.996 Y120.877 E39.64315
G1 X119.272 Y121.138 E39.67905
G1 X133.29 Y135.156 E41.55246
G1 X133.783 Y135.706 E41.62226
G1 X134.214 Y136.306 E41.69207
G1 X134.578 Y136.949 E41.7619
G1 X134.87 Y137.627 E41.83166
G1 X135.087 Y138.333 E41.90145
G1 X135.226 Y139.059 E41.97131
G1 X135.289 Y139.982 E42.05873
G1 X135.289 Y140.126 E42.07234
G1 X135.249 Y140.864 E42.14218
G1 X135.13 Y141.592 E42.21189
G1 X134.932 Y142.304 E42.28173
G1 X134.659 Y142.99 E42.3515
G1 X134.313 Y143.643 E42.42134
G1 X133.899 Y144.255 E42.49116
G1 X133.292 Y144.95 E42.57836
G1 X131.351 Y146.893 E42.8379
G1 X130.802 Y147.386 E42.90763
G1 X130.202 Y147.817 E42.97744
G1 X129.56 Y148.181 E43.04718
G1 X128.881 Y148.474 E43.11706
G1 X128.175 Y148.691 E43.18686
G1 X127.45 Y148.831 E43.25664
G1 X126.523 Y148.894 E43.34444
G1 X126.378 Y148.894 E43.35815
G1 X125.64 Y148.854 E43.42799
G1 X124.912 Y148.735 E43.4977
G1 X124.2 Y148.537 E43.56754
G1 X123.514 Y148.264 E43.63731
G1 X122.861 Y147.918 E43.70714
G1 X122.249 Y147.504 E43.77697
G1 X121.552 Y146.895 E43.86443
G1 X110.369 Y135.712 E45.35897
G1 X94.557 Y135.712 E46.8532
G1 X93.819 Y135.672 E46.92304
G1 X93.091 Y135.553 E46.99275
G1 X92.379 Y135.355 E47.06259
G1 X91.693 Y135.082 E47.13236
G1 X91.04 Y134.736 E47.2022
G1 X90.428 Y134.322 E47.27202
G1 X89.731 Y133.713 E47.35949
G1 X89.628 Y133.61 E47.37325
G1 X89.135 Y133.06 E47.44305
G1 X88.704 Y132.46 E47.51286
G1 X88.34 Y131.817 E47.58269
G1 X88.048 Y131.139 E47.65245
G1 X87.831 Y130.433 E47.72225
G1 X87.692 Y129.707 E47.7921
G1 X87.629 Y128.784 E47.87953
G1 X87.629 Y126.04 E48.13883
G1 X87.669 Y125.302 E48.20868
G1 X87.788 Y124.574 E48.27839
G1 X87.986 Y123.862 E48.34822
G1 X88.259 Y123.176 E48.418
G1 X88.605 Y122.523 E48.48783
G1 X89.019 Y121.911 E48.55766
G1 X89.628 Y121.214 E48.64512
G1 X89.731 Y121.111 E48.65889
G1 X90.281 Y120.618 E48.72869
G0 F4500 X90.515 Y120.879
G1 F1800 X91.101 Y120.462 E48.79665
G1 X91.73 Y120.112 E48.86468
G1 X92.393 Y119.834 E48.93261
G1 X93.084 Y119.632 E49.00065
G1 X93.792 Y119.507 E49.06859
G1 X94.557 Y119.462 E49.14101
G1 X114.383 Y119.462 E51.01456
G1 X115.101 Y119.502 E51.08252
G1 X115.811 Y119.621 E51.15055
G1 X116.503 Y119.819 E51.21857
G1 X116.997 Y120.013 E51.26872
G1 X117.641 Y120.332 E51.33664
G1 X118.246 Y120.721 E51.40461
G1 X119.025 Y121.385 E51.50134
G1 X133.043 Y135.403 E53.37475
G1 X133.522 Y135.94 E53.44275
G1 X133.939 Y136.526 E53.51071
G1 X134.289 Y137.155 E53.57874
G1 X134.567 Y137.818 E53.64668
G1 X134.769 Y138.509 E53.71471
G1 X134.894 Y139.217 E53.78265
G1 X134.939 Y139.982 E53.85507
G1 X134.939 Y140.126 E53.86867
G1 X134.899 Y140.844 E53.93663
G1 X134.78 Y141.554 E54.00466
G1 X134.582 Y142.246 E54.07268
G1 X134.309 Y142.911 E54.14061
G1 X133.964 Y143.543 E54.20866
G1 X133.551 Y144.132 E54.27664
G1 X133.045 Y144.702 E54.34866
G1 X131.104 Y146.645 E54.6082
G1 X130.568 Y147.125 E54.67619
G1 X129.982 Y147.543 E54.74421
G1 X129.353 Y147.893 E54.81224
G1 X128.69 Y148.171 E54.88017
G1 X128 Y148.373 E54.94812
G1 X127.291 Y148.498 E55.01615
G1 X126.523 Y148.544 E55.08886
G1 X126.378 Y148.544 E55.10256
G1 X125.66 Y148.504 E55.17051
G1 X124.95 Y148.385 E55.23855
G1 X124.258 Y148.187 E55.30656
G1 X123.593 Y147.914 E55.3745
G1 X122.961 Y147.569 E55.44254
G1 X122.372 Y147.156 E55.51052
G1 X121.799 Y146.648 E55.58288
G1 X110.513 Y135.362 E57.09118
G1 X94.557 Y135.362 E58.59902
G1 X93.839 Y135.322 E58.66698
G1 X93.129 Y135.203 E58.73501
G1 X92.437 Y135.005 E58.80303
G1 X91.772 Y134.732 E58.87096
G1 X91.14 Y134.387 E58.939
G1 X90.551 Y133.974 E59.00698
G1 X89.978 Y133.466 E59.07935
G1 X89.875 Y133.363 E59.09311
G1 X89.396 Y132.826 E59.16111
G1 X88.979 Y132.24 E59.22908
G1 X88.629 Y131.611 E59.2971
G1 X88.351 Y130.948 E59.36504
G1 X88.149 Y130.257 E59.43308
G1 X88.024 Y129.549 E59.50102
G1 X87.979 Y128.784 E59.57343
G1 X87.979 Y126.04 E59.83274
G1 X88.019 Y125.322 E59.9007
G1 X88.138 Y124.612 E59.96873
G1 X88.336 Y123.92 E60.03675
G1 X88.609 Y123.255 E60.10468
G1 X88.954 Y122.623 E60.17272
G1 X89.367 Y122.034 E60.2407
G1 X89.875 Y121.461 E60.31307
G1 X89.978 Y121.358 E60.32683
G1 X90.515 Y120.879 E60.39483
G0 F4500 X90.748 Y121.14
G1 F1800 X91.32 Y120.737 E60.46096
G1 X91.934 Y120.402 E60.52705
G1 X92.583 Y120.139 E60.59323
G1 X93.257 Y119.952 E60.65933
G1 X93.948 Y119.842 E60.72545
G1 X94.557 Y119.812 E60.78307
G1 X114.383 Y119.812 E62.65663
G1 X115.082 Y119.852 E62.72279
G1 X115.771 Y119.971 E62.78886
G1 X116.442 Y120.169 E62.85498
G1 X116.859 Y120.334 E62.89736
G1 X117.485 Y120.646 E62.96345
G1 X118.072 Y121.027 E63.02959
G1 X118.777 Y121.633 E63.11744
G1 X132.795 Y135.651 E64.99085
G1 X133.261 Y136.173 E65.05697
G1 X133.664 Y136.745 E65.1231
G1 X133.999 Y137.359 E65.18919
G1 X134.262 Y138.008 E65.25537
G1 X134.449 Y138.682 E65.32147
G1 X134.559 Y139.373 E65.38759
G1 X134.589 Y139.982 E65.44521
G1 X134.589 Y140.126 E65.45882
G1 X134.549 Y140.825 E65.52498
G1 X134.43 Y141.514 E65.59106
G1 X134.232 Y142.185 E65.65717
G1 X133.96 Y142.83 E65.72332
G1 X133.616 Y143.439 E65.78942
G1 X133.204 Y144.005 E65.85557
G1 X132.797 Y144.455 E65.91291
G1 X130.856 Y146.398 E66.17245
G1 X130.334 Y146.864 E66.23857
G1 X129.763 Y147.267 E66.30462
G1 X129.149 Y147.603 E66.37076
G1 X128.5 Y147.866 E66.43693
G1 X127.826 Y148.054 E66.50306
G1 X127.135 Y148.163 E66.56917
G1 X126.523 Y148.194 E66.62707
G1 X126.378 Y148.194 E66.64078
G1 X125.679 Y148.154 E66.70694
G1 X124.99 Y148.035 E66.77301
G1 X124.319 Y147.837 E66.83913
G1 X123.674 Y147.565 E66.90528
G1 X123.065 Y147.221 E66.97137
G1 X122.499 Y146.809 E67.03753
G1 X122.047 Y146.4 E67.09514
G1 X110.659 Y135.012 E68.61706
G1 X94.557 Y135.012 E70.1387
G1 X93.858 Y134.972 E70.20487
G1 X93.169 Y134.853 E70.27094
G1 X92.498 Y134.655 E70.33705
G1 X91.853 Y134.383 E70.40321
G1 X91.244 Y134.039 E70.4693
G1 X90.678 Y133.627 E70.53546
G1 X90.226 Y133.218 E70.59306
G1 X90.123 Y133.115 E70.60683
G1 X89.657 Y132.593 E70.67296
G1 X89.254 Y132.021 E70.73908
G1 X88.919 Y131.407 E70.80517
G1 X88.656 Y130.758 E70.87135
G1 X88.469 Y130.084 E70.93745
G1 X88.359 Y129.393 E71.00357
G1 X88.329 Y128.784 E71.06119
G1 X88.329 Y126.04 E71.3205
G1 X88.369 Y125.341 E71.38666
G1 X88.488 Y124.652 E71.45274
G1 X88.686 Y123.981 E71.51885
G1 X88.958 Y123.336 E71.585
G1 X89.302 Y122.727 E71.6511
G1 X89.714 Y122.161 E71.71725
G1 X90.123 Y121.709 E71.77486
G1 X90.226 Y121.606 E71.78862
G1 X90.748 Y121.14 E71.85475
G0 F4500 X90.981 Y121.402
G1 F1800 X91.539 Y121.014 E71.91898
G1 X92.138 Y120.693 E71.9832
G1 X92.77 Y120.445 E72.04735
G1 X93.428 Y120.273 E72.11162
G1 X94.101 Y120.18 E72.17583
G1 X94.557 Y120.162 E72.21895
G1 X114.383 Y120.162 E74.09251
G1 X115.061 Y120.202 E74.15669
G1 X115.73 Y120.321 E74.22091
G1 X116.658 Y120.629 E74.31331
G1 X116.721 Y120.656 E74.31978
G1 X117.329 Y120.96 E74.38402
G1 X117.896 Y121.333 E74.44816
G1 X118.53 Y121.88 E74.52729
G1 X132.548 Y135.898 E76.4007
G1 X132.999 Y136.406 E76.46489
G1 X133.387 Y136.964 E76.52912
G1 X133.708 Y137.563 E76.59334
G1 X133.956 Y138.195 E76.6575
G1 X134.128 Y138.853 E76.72177
G1 X134.221 Y139.526 E76.78597
G1 X134.239 Y140.126 E76.8427
G1 X134.199 Y140.804 E76.90688
G1 X134.08 Y141.473 E76.97109
G1 X133.883 Y142.123 E77.03527
G1 X133.611 Y142.746 E77.09951
G1 X133.267 Y143.332 E77.16373
G1 X132.857 Y143.874 E77.22795
G1 X132.55 Y144.207 E77.27075
G1 X130.609 Y146.15 E77.53029
G1 X130.101 Y146.602 E77.59454
G1 X129.544 Y146.991 E77.65875
G1 X128.945 Y147.312 E77.72297
G1 X128.312 Y147.56 E77.78721
G1 X127.655 Y147.732 E77.85139
G1 X126.982 Y147.826 E77.91561
G1 X126.378 Y147.844 E77.97271
G1 X125.7 Y147.804 E78.03689
G1 X125.031 Y147.685 E78.10111
G1 X124.381 Y147.488 E78.16529
G1 X123.758 Y147.216 E78.22953
G1 X123.172 Y146.872 E78.29375
G1 X122.63 Y146.462 E78.35797
G1 X122.294 Y146.153 E78.40111
G1 X110.803 Y134.662 E79.9368
G1 X94.557 Y134.662 E81.47205
G1 X93.879 Y134.622 E81.53623
G1 X93.21 Y134.503 E81.60044
G1 X92.56 Y134.306 E81.66463
G1 X91.937 Y134.034 E81.72887
G1 X91.351 Y133.69 E81.79308
G1 X90.809 Y133.28 E81.8573
G1 X90.37 Y132.868 E81.9142
G1 X89.919 Y132.36 E81.97839
